joe-scholtz-isi/modelagem/data/open_loop_steering_cut.csv
__time,/effort_controller/commands/data[1],/joint_states/front_left_wheel_joint/effort,/joint_states/front_left_motor_joint/position,/joint_states/front_left_motor_joint/velocity
1718737782.000327,0.0,0.0,-0.010626723,0.001031235
1718737782.001441,0.0,0.0,-0.010626617,0.000637447
1718737782.002561,0.0,0.0,-0.010626969,-3.1446e-05
1718737782.003121,0.0,0.0,-0.010627977,-0.000953107
1718737782.004235,0.0,0.0,-0.010629821,-0.002098097
1718737782.005346,0.0,0.0,-0.010633795,-0.001870689
1718737782.006465,0.0,0.0,-0.010641189,-0.010202069
1718737782.007024,0.0,0.0,-0.010643313,-0.010197562
1718737782.008159,0.0,0.0,-0.010642765,-0.010672982
1718737782.009259,0.0,0.0,-0.010646388,-0.014713785
1718737782.010349,0.0,0.0,-0.010646149,-0.009812468
1718737782.011463,0.0,0.0,-0.010648984,-0.014780353
1718737782.012153,0.0,0.0,-0.010655736,-0.019708915
1718737782.013169,0.0,0.0,-0.010666939,-0.023720989
1718737782.014285,0.0,0.0,-0.010682673,-0.026851898
1718737782.015408,0.0,0.0,-0.010702602,-0.029206167
1718737782.016523,0.0,0.0,-0.010726088,-0.030871002
1718737782.017087,0.0,0.0,-0.010752326,-0.031918755
1718737782.0182,0.0,0.0,-0.010780449,-0.032416672
1718737782.019312,0.0,0.0,-0.010809612,-0.032433044
1718737782.020423,0.0,0.0,-0.010839052,-0.032039453
1718737782.020994,0.0,0.0,-0.010868124,-0.03131042
1718737782.022146,0.0,0.0,-0.010896323,-0.030321631
1718737782.023275,0.0,0.0,-0.010923287,-0.029147567
1718737782.024365,0.0,0.0,-0.01094879,-0.027859035
1718737782.025477,0.0,0.0,-0.01097273,-0.026520937
1718737782.026037,0.0,0.0,-0.010995104,-0.025190419
1718737782.027149,0.0,0.0,-0.011015994,-0.023915502
1718737782.02826,0.0,0.0,-0.011035536,-0.022734217
1718737782.029371,0.0,0.0,-0.011053908,-0.021674242
1718737782.030483,0.0,0.0,-0.011071308,-0.02075299
1718737782.031044,0.0,0.0,-0.011087935,-0.019978106
1718737782.032155,0.0,0.0,-0.011103985,-0.019348299
1718737782.033268,0.0,0.0,-0.011116586,-0.017706283
1718737782.034342,0.0,0.0,-0.0111129,0.002819892
1718737782.035455,0.0,0.0,-0.01110619,0.010139724
1718737782.036028,0.0,0.0,-0.011098648,0.013558096
1718737782.037131,0.0,0.0,-0.011090671,0.015143414
1718737782.038242,0.0,0.0,-0.011082395,0.015566223
1718737782.039355,0.0,0.0,-0.011073976,0.015184356
1718737782.040466,0.0,0.0,-0.011065639,0.014241614
1718737782.041028,0.0,0.0,-0.011057658,0.012927771
1718737782.042139,0.0,0.0,-0.011050312,0.011401689
1718737782.043251,0.0,0.0,-0.011043847,0.009800124
1718737782.044362,0.0,0.0,-0.011038436,0.008240404
1718737782.045474,0.0,0.0,-0.011034165,0.006820644
1718737782.046034,0.0,0.0,-0.011031023,0.005619254
1718737782.047147,0.0,0.0,-0.011028904,0.004694563
1718737782.048258,0.0,0.0,-0.011027621,0.004084935
1718737782.049371,0.0,0.0,-0.011026928,0.003809488
1718737782.049939,0.0,0.0,-0.011026535,0.003869417
1718737782.051049,0.0,0.0,-0.011026136,0.004249853
1718737782.052158,0.0,0.0,-0.011025428,0.004922131
1718737782.053273,0.0,0.0,-0.011055086,0.006503811
1718737782.054342,0.0,0.0,-0.011013037,-0.007104237
1718737782.055448,0.0,0.0,-0.01103079,-0.019203372
1718737782.056008,0.0,0.0,-0.011059429,-0.021963629
1718737782.05712,0.0,0.0,-0.011089883,-0.022139442
1718737782.058237,0.0,0.0,-0.011118958,-0.021044464
1718737782.059357,0.0,0.0,-0.011145048,-0.019173263
1718737782.059937,0.0,0.0,-0.011167324,-0.016820712
1718737782.061023,0.0,0.0,-0.01118546,-0.014204173
1718737782.062152,0.0,0.0,-0.011199476,-0.011499516
1718737782.06325,0.0,0.0,-0.011209638,-0.008853659
1718737782.064361,0.0,0.0,-0.011216378,-0.006388746
1718737782.065473,0.0,0.0,-0.011220222,-0.004203271
1718737782.066039,0.0,0.0,-0.011221749,-0.00237236
1718737782.067151,0.0,0.0,-0.011221546,-0.000948165
1718737782.068266,0.0,0.0,-0.011220185,3.9285e-05
1718737782.06941,0.0,0.0,-0.011218201,0.000580638
1718737782.069971,0.0,0.0,-0.011216077,0.000685239
1718737782.071086,0.0,0.0,-0.011214243,0.000378684
1718737782.072239,0.0,0.0,-0.011213062,-0.00029995
1718737782.073392,0.0,0.0,-0.011212834,-0.001301087
1718737782.073947,0.0,0.0,-0.011214521,-0.000934506
1718737782.075071,0.0,0.0,-0.011220112,-0.008995268
1718737782.076179,0.0,0.0,-0.011221236,-0.009012327
1718737782.077334,0.0,0.0,-0.011220286,-0.009532189
1718737782.078448,0.0,0.0,-0.011220016,-0.011239124
1718737782.079005,0.0,0.0,-0.011226284,-0.016667855
1718737782.080115,0.0,0.0,-0.011229958,-0.012456778
1718737782.081227,0.0,0.0,-0.011237703,-0.017746934
1718737782.082383,0.0,0.0,-0.011249728,-0.022666956
1718737782.083497,0.0,0.0,-0.011266006,-0.026420864
1718737782.084053,0.0,0.0,-0.011286207,-0.029083756
1718737782.085165,0.0,0.0,-0.011309715,-0.030790049
1718737782.08628,0.0,0.0,-0.011335721,-0.031655451
1718737782.087449,0.0,0.0,-0.011363324,-0.031781595
1718737782.088571,0.0,0.0,-0.011391622,-0.031265868
1718737782.089069,0.0,0.0,-0.011419773,-0.030206869
1718737782.090235,0.0,0.0,-0.01144705,-0.028705767
1718737782.091314,0.0,0.0,-0.011472861,-0.026865041
1718737782.092436,0.0,0.0,-0.01149677,-0.02478592
1718737782.092983,0.0,0.0,-0.011518491,-0.022565363
1718737782.094096,0.0,0.0,-0.01153788,-0.020293143
1718737782.095209,0.0,0.0,-0.011554919,-0.018049317
1718737782.096321,0.0,0.0,-0.011569695,-0.015902279
1718737782.097449,0.0,0.0,-0.011582376,-0.013907449
1718737782.098556,0.0,0.0,-0.011593186,-0.012106604
1718737782.099112,0.0,0.0,-0.011602389,-0.010527833
1718737782.100295,0.0,0.0,-0.011610264,-0.009186042
1718737782.101399,0.0,0.0,-0.011613864,-0.006759486
1718737782.10251,0.0,0.0,-0.011599966,0.014714008
1718737782.103069,0.0,0.0,-0.011582326,0.022603826
1718737782.10423,0.0,0.0,-0.011563436,0.026408455
1718737782.105348,0.0,0.0,-0.011543915,0.028231795
1718737782.106458,0.0,0.0,-0.011524063,0.028763608
1718737782.107023,0.0,0.0,-0.011504161,0.028376804
1718737782.108135,0.0,0.0,-0.011484527,0.027329206
1718737782.10925,0.0,0.0,-0.011465505,0.025824462
1718737782.110348,0.0,0.0,-0.011447425,0.024035238
1718737782.111462,0.0,0.0,-0.011430569,0.022111782
1718737782.112576,0.0,0.0,-0.01144008,0.020816427
1718737782.113131,0.0,0.0,-0.011390304,0.004976136
1718737782.114244,0.0,0.0,-0.01139881,-0.009880623
1718737782.115361,0.0,0.0,-0.011419995,-0.015255971
1718737782.116477,0.0,0.0,-0.011445258,-0.017814711
1718737782.117041,0.0,0.0,-0.011471362,-0.018781306
1718737782.118153,0.0,0.0,-0.011496467,-0.0185858
1718737782.119265,0.0,0.0,-0.011519392,-0.017483695
1718737782.120383,0.0,0.0,-0.011539388,-0.015676132
1718737782.121541,0.0,0.0,-0.011556023,-0.013343483
1718737782.122125,0.0,0.0,-0.011569107,-0.010655172
1718737782.123492,0.0,0.0,-0.011578642,-0.007770844
1718737782.124581,0.0,0.0,-0.011584772,-0.004838293
1718737782.125705,0.0,0.0,-0.011587753,-0.001990455
1718737782.126297,0.0,0.0,-0.011587921,0.000657454
1718737782.127412,0.0,0.0,-0.011585668,0.003010168
1718737782.128602,0.0,0.0,-0.011581425,0.00499376
1718737782.129165,0.0,0.0,-0.011575639,0.006556139
1718737782.130273,0.0,0.0,-0.011568765,0.007666684
1718737782.131424,0.0,0.0,-0.011561247,0.008315105
1718737782.132545,0.0,0.0,-0.011553511,0.008509643
1718737782.133094,0.0,0.0,-0.011545951,0.008274753
1718737782.134205,0.0,0.0,-0.011538921,0.007648403
1718737782.135323,0.0,0.0,-0.01153273,0.006679154
1718737782.136432,0.0,0.0,-0.011527638,0.00542314
1718737782.137562,0.0,0.0,-0.011523846,0.003941088
1718737782.138108,0.0,0.0,-0.011521502,0.002295498
1718737782.139213,0.0,0.0,-0.011520699,0.000548051
1718737782.140325,0.0,0.0,-0.011521973,0.000494397
1718737782.141437,0.0,0.0,-0.011527427,-0.007829045
1718737782.142588,0.0,0.0,-0.011528548,-0.007909238
1718737782.14315,0.0,0.0,-0.011527558,-0.008339209
1718737782.144264,0.0,0.0,-0.011527054,-0.009819622
1718737782.145376,0.0,0.0,-0.011532723,-0.014893971
1718737782.146493,0.0,0.0,-0.011535362,-0.010279901
1718737782.147063,0.0,0.0,-0.011541679,-0.015097835
1718737782.148206,0.0,0.0,-0.011551823,-0.019518467
1718737782.149359,0.0,0.0,-0.011565728,-0.022786859
1718737782.150477,0.0,0.0,-0.011583065,-0.02500297
1718737782.151627,0.0,0.0,-0.011603256,-0.026321194
1718737782.15219,0.0,0.0,-0.011625558,-0.026873258
1718737782.153352,0.0,0.0,-0.011649159,-0.026772691
1718737782.154473,0.0,0.0,-0.011673251,-0.026124528
1718737782.155592,0.0,0.0,-0.011697099,-0.025030843
1718737782.156157,0.0,0.0,-0.011720075,-0.023592344
1718737782.157278,0.0,0.0,-0.011741689,-0.021907507
1718737782.158369,0.0,0.0,-0.011761591,-0.020070506
1718737782.159521,0.0,0.0,-0.011779575,-0.018168764
1718737782.160095,0.0,0.0,-0.011795567,-0.016280645
1718737782.16126,0.0,0.0,-0.0118096,-0.014473547
1718737782.162405,0.0,0.0,-0.011821801,-0.012802561
1718737782.16357,0.0,0.0,-0.011832365,-0.011309719
1718737782.164135,0.0,0.0,-0.011841529,-0.010023836
1718737782.165333,0.0,0.0,-0.011846381,-0.007648817
1718737782.166408,0.0,0.0,-0.011833774,0.013581498
1718737782.1677,0.0,0.0,-0.011817355,0.021352685
1718737782.168285,0.0,0.0,-0.011799631,0.025069934
1718737782.1694,0.0,0.0,-0.011781258,0.026804505
1718737782.170573,0.0,0.0,-0.011762581,0.027233643
1718737782.171406,0.0,0.0,-0.011743924,0.026723625
1718737782.172523,0.0,0.0,-0.011725645,0.025528984
1718737782.173686,0.0,0.0,-0.011733738,0.024539963
1718737782.174264,0.0,0.0,-0.011682247,0.008435055
1718737782.175467,0.0,0.0,-0.011688572,-0.007285764
1718737782.176647,0.0,0.0,-0.011707806,-0.013548963
1718737782.177237,0.0,0.0,-0.011731667,-0.017154034
1718737782.178391,0.0,0.0,-0.011757162,-0.019289488
1718737782.179521,0.0,0.0,-0.011782632,-0.020326476
1718737782.180694,0.0,0.0,-0.01180701,-0.020460033
1718737782.181281,0.0,0.0,-0.011829587,-0.019834883
1718737782.182403,0.0,0.0,-0.011849901,-0.018581709
1718737782.183555,0.0,0.0,-0.011867671,-0.016828555
1718737782.184659,0.0,0.0,-0.011882755,-0.014702898
1718737782.185231,0.0,0.0,-0.011895116,-0.01232994
1718737782.186436,0.0,0.0,-0.011904802,-0.009829515
1718737782.187573,0.0,0.0,-0.01191193,-0.007312756
1718737782.188703,0.0,0.0,-0.011916672,-0.004879085
1718737782.189299,0.0,0.0,-0.011919248,-0.00261379
1718737782.190422,0.0,0.0,-0.011919914,-0.000586327
1718737782.191693,0.0,0.0,-0.011918956,0.001150621
1718737782.192258,0.0,0.0,-0.011916677,0.002561357
1718737782.193407,0.0,0.0,-0.011913391,0.003626691
1718737782.194555,0.0,0.0,-0.011909412,0.004342885
1718737782.195712,0.0,0.0,-0.011905044,0.004720092
1718737782.196362,0.0,0.0,-0.011900572,0.004780428
1718737782.197448,0.0,0.0,-0.011896256,0.004555781
1718737782.198622,0.0,0.0,-0.011895985,0.001760293
1718737782.199766,0.0,0.0,-0.011889718,0.008690597
1718737782.20035,0.0,0.0,-0.011883702,0.006220349
1718737782.201475,0.0,0.0,-0.011878349,0.00586633
1718737782.202645,0.0,0.0,-0.011876138,-0.001648134
1718737782.203799,0.0,0.0,-0.011868695,-0.000113506
1718737782.204463,0.0,0.0,-0.011858128,0.001660761
1718737782.205579,0.0,0.0,-0.011846807,0.002779176
1718737782.206763,0.0,0.0,-0.011836323,0.003315982
1718737782.207952,0.0,0.0,-0.011827572,0.003414483
1718737782.208553,0.0,0.0,-0.011820951,0.003187167
1718737782.209678,0.0,0.0,-0.011816528,0.002715782
1718737782.210832,0.0,0.0,-0.011814178,0.002061843
1718737782.21143,0.0,0.0,-0.011813668,0.001274741
1718737782.212573,0.0,0.0,-0.011814729,0.000396494
1718737782.213724,0.0,0.0,-0.01181709,-0.000535881
1718737782.21458,0.0,0.0,-0.011820507,-0.001489413
1718737782.215728,0.0,0.0,-0.011824773,-0.002434967
1718737782.216908,0.0,0.0,-0.011829723,-0.003347361
1718737782.217502,0.0,0.0,-0.011835229,-0.004205565
1718737782.218639,0.0,0.0,-0.011841195,-0.004992874
1718737782.219799,0.0,0.0,-0.011847547,-0.005696968
1718737782.220361,0.0,0.0,-0.01185423,-0.006309843
1718737782.221501,0.0,0.0,-0.011861195,-0.006827605
1718737782.222747,0.0,0.0,-0.0118684,-0.00725015
1718737782.223926,0.0,0.0,-0.011875801,-0.007580719
1718737782.22452,0.0,0.0,-0.011883355,-0.00782539
1718737782.225665,0.0,0.0,-0.011891021,-0.007992501
1718737782.226876,0.0,0.0,-0.011898754,-0.008092054
1718737782.227491,0.0,0.0,-0.011906516,-0.00813511
1718737782.228578,0.0,0.0,-0.01191427,-0.008133214
1718737782.229727,0.0,0.0,-0.011921985,-0.008097853
1718737782.230884,0.0,0.0,-0.011929637,-0.008039989
1718737782.231579,0.0,0.0,-0.011937211,-0.007969648
1718737782.232635,0.0,0.0,-0.011944696,-0.007895608
1718737782.233899,0.0,0.0,-0.011949041,-0.006601859
1718737782.234416,0.0,0.0,-0.011958742,0.014209957
1718737782.235553,0.0,0.0,-0.011910745,0.00739642
1718737782.236688,0.0,0.0,-0.011916139,-0.002844402
1718737782.237871,0.0,0.0,-0.011931895,-0.00543761
1718737782.238506,0.0,0.0,-0.011950102,-0.006639506
1718737782.239776,0.0,0.0,-0.011968052,-0.007395196
1718737782.240895,0.0,0.0,-0.011984489,-0.007925532
1718737782.241507,0.0,0.0,-0.011998882,-0.008305481
1718737782.242657,0.0,0.0,-0.012011139,-0.008566003
1718737782.243783,0.0,0.0,-0.012021439,-0.008722035
1718737782.244391,0.0,0.0,-0.012030107,-0.008782783
1718737782.245538,0.0,0.0,-0.012037515,-0.008755939
1718737782.24669,0.0,0.0,-0.012044022,-0.008649404
1718737782.247833,0.0,0.0,-0.012049936,-0.008471899
1718737782.248427,0.0,0.0,-0.01205549,-0.008233049
1718737782.249572,0.0,0.0,-0.012060845,-0.007943193
1718737782.250722,0.0,0.0,-0.012066093,-0.007613078
1718737782.251878,0.0,0.0,-0.012071268,-0.007253481
1718737782.25246,0.0,0.0,-0.012076366,-0.00687484
1718737782.253602,0.0,0.0,-0.012084984,-0.008628154
1718737782.254757,0.0,0.0,-0.012086667,-0.000371969
1718737782.255944,0.0,0.0,-0.012087669,-0.001633968
1718737782.256588,0.0,0.0,-0.012087833,-0.002411572
1718737782.257795,0.0,0.0,-0.012087146,-0.00206028
1718737782.258899,0.0,0.0,-0.012085584,-0.000793789
1718737782.259487,0.0,0.0,-0.012083029,0.001135924
1718737782.26063,0.0,0.0,-0.012079281,0.003519701
1718737782.26178,0.0,0.0,-0.012074099,0.006186747
1718737782.262918,0.0,0.0,-0.012067243,0.008993808
1718737782.2635,0.0,0.0,-0.012058894,0.013554701
1718737782.26464,0.0,0.0,-0.012051493,0.009654163
1718737782.265808,0.0,0.0,-0.012036333,0.013890984
1718737782.266932,0.0,0.0,-0.012015649,0.017409319
1718737782.267522,0.0,0.0,-0.011992219,0.019418686
1718737782.268665,0.0,0.0,-0.011968232,0.020098694
1718737782.269837,0.0,0.0,-0.011945267,0.019694734
1718737782.270413,0.0,0.0,-0.011924412,0.01842242
1718737782.2717,0.0,0.0,-0.011906374,0.016469206
1718737782.272903,0.0,0.0,-0.011891571,0.014003833
1718737782.273489,0.0,0.0,-0.011880198,0.011181901
1718737782.274629,0.0,0.0,-0.011872282,0.008147534
1718737782.27577,0.0,0.0,-0.011867719,0.005032686
1718737782.276915,0.0,0.0,-0.011866314,0.001955393
1718737782.277501,0.0,0.0,-0.011867797,-0.000982141
1718737782.278644,0.0,0.0,-0.011871854,-0.00369514
1718737782.279825,0.0,0.0,-0.011878135,-0.006117273
1718737782.280925,0.0,0.0,-0.011886277,-0.008200982
1718737782.28151,0.0,0.0,-0.011895906,-0.009917125
1718737782.282668,0.0,0.0,-0.01190666,-0.011253983
1718737782.2838,0.0,0.0,-0.011918189,-0.012215719
1718737782.284941,0.0,0.0,-0.011930164,-0.012820389
1718737782.285537,0.0,0.0,-0.011942292,-0.013097645
1718737782.286746,0.0,0.0,-0.011954312,-0.013086233
1718737782.287874,0.0,0.0,-0.011966006,-0.012831407
1718737782.288465,0.0,0.0,-0.011977201,-0.01238238
1718737782.289739,0.0,0.0,-0.011987768,-0.011789892
1718737782.290868,0.0,0.0,-0.011997624,-0.011103993
1718737782.291543,0.0,0.0,-0.012034882,-0.009531978
1718737782.292715,0.0,0.0,-0.012009857,-0.022992104
1718737782.293893,0.0,0.0,-0.012039278,-0.036080878
1718737782.294506,0.0,0.0,-0.01207915,-0.039632364
1718737782.295713,0.0,0.0,-0.012118899,-0.039774191
1718737782.296907,0.0,0.0,-0.012142573,-0.02038894
1718737782.297521,0.0,0.0,-0.012161421,-0.012917134
1718737782.298698,0.0,0.0,-0.012176798,-0.008627252
1718737782.299875,0.0,0.0,-0.012188769,-0.005742832
1718737782.300492,0.0,0.0,-0.012197443,-0.003782563
1718737782.301674,0.0,0.0,-0.012203159,-0.002536649
1718737782.302846,0.0,0.0,-0.012206463,-0.001882061
1718737782.303498,0.0,0.0,-0.012208029,-0.001726768
1718737782.304655,0.0,0.0,-0.012208576,-0.001988067
1718737782.306101,0.0,0.0,-0.012208789,-0.002584471
1718737782.306575,0.0,0.0,-0.012209268,-0.00343381
1718737782.307769,0.0,0.0,-0.012210486,-0.004454149
1718737782.308946,0.0,0.0,-0.012212782,-0.005565872
1718737782.309673,0.0,0.0,-0.012216351,-0.006694057
1718737782.31082,0.0,0.0,-0.012221258,-0.007770692
1718737782.311983,0.0,0.0,-0.012227458,-0.00873652
1718737782.312578,0.0,0.0,-0.012234812,-0.009542395
1718737782.313691,0.0,0.0,-0.012243114,-0.010150116
1718737782.314968,0.0,0.0,-0.012252109,-0.010532755
1718737782.315563,0.0,0.0,-0.012261519,-0.010674514
1718737782.316669,0.0,0.0,-0.012271056,-0.010570168
1718737782.317882,0.0,0.0,-0.012280437,-0.01022416
1718737782.319068,0.0,0.0,-0.0122894,-0.009649423
1718737782.319694,0.0,0.0,-0.012297708,-0.008866011
1718737782.320984,0.0,0.0,-0.012305159,-0.0078996
1718737782.32162,0.0,0.0,-0.012315328,-0.009278369
1718737782.322794,0.0,0.0,-0.012317367,-9.9692e-05
1718737782.323989,0.0,0.0,-0.012317892,-0.00050072
1718737782.32464,0.0,0.0,-0.012316702,-0.000309616
1718737782.325799,0.0,0.0,-0.012313716,0.00107761
1718737782.326298,2.0,0.0,-0.012313716,0.00107761
1718737782.326982,2.0,0.0,-0.012308876,0.003410745
1718737782.327591,2.0,0.0,-0.012302065,0.006407425
1718737782.328791,2.0,0.0,-0.012293114,0.009832509
1718737782.32999,2.0,0.0,-0.012281836,0.013493031
1718737782.330645,2.0,0.0,-0.012268377,0.018933339
1718737782.331838,2.0,0.0,-0.012255506,0.015923919
1718737782.333011,2.0,0.0,-0.012234447,0.021107496
1718737782.333629,2.0,0.0,-0.01220735,0.025541856
1718737782.334821,2.0,0.0,-0.01217694,0.028414116
1718737782.33601,2.0,0.0,-0.012145388,0.029888776
1718737782.336639,2.0,0.0,-0.012114288,0.030199823
1718737782.337876,2.0,0.0,-0.012084772,0.029554522
1718737782.339029,2.0,0.0,-0.012057614,0.028134919
1718737782.33964,2.0,0.0,-0.012033311,0.026107164
1718737782.340886,2.0,0.0,-0.012012146,0.023626892
1718737782.342073,2.0,0.0,-0.011994233,0.020840602
1718737782.34269,2.0,0.0,-0.011979561,0.017884588
1718737782.343885,2.0,0.0,-0.011994527,0.015625973
1718737782.34505,2.0,0.0,-0.011953394,-0.000911674
1718737782.345662,2.0,0.0,-0.011968431,-0.017132369
1718737782.346837,2.0,0.0,-0.011996619,-0.023739067
1718737782.348005,2.0,0.0,-0.012029687,-0.027542268
1718737782.348646,2.0,0.0,-0.012064461,-0.029770989
1718737782.349827,2.0,0.0,-0.012099127,-0.030841306
1718737782.351051,2.0,0.0,-0.012132523,-0.030991468
1718737782.351693,2.0,0.0,-0.012163912,-0.03040472
1718737782.352817,2.0,0.0,-0.012192865,-0.029243811
1718737782.353997,2.0,0.0,-0.01221635,-0.02653549
1718737782.354569,2.0,0.0,-0.012221249,-0.004991773
1718737782.35572,2.0,0.0,-0.012220545,0.003830553
1718737782.356939,2.0,0.0,-0.012216542,0.008947066
1718737782.357537,2.0,0.0,-0.012209889,0.012236827
1718737782.358672,2.0,0.0,-0.012201044,0.014240012
1718737782.35981,2.0,0.0,-0.012190527,0.015211766
1718737782.360943,2.0,0.0,-0.012178951,0.015317141
1718737782.361524,2.0,0.0,-0.012166988,0.014690352
1718737782.362692,2.0,0.0,-0.012155314,0.0134571
1718737782.363824,2.0,0.0,-0.012144556,0.011742091
1718737782.36497,2.0,0.0,-0.01213525,0.009669863
1718737782.365558,2.0,0.0,-0.012127816,0.007362657
1718737782.366704,2.0,0.0,-0.012122538,0.004937204
1718737782.367856,2.0,0.0,-0.012119562,0.002501402
1718737782.369006,2.0,0.0,-0.012118907,0.000151362
1718737782.369648,2.0,0.0,-0.012120475,-0.002030902
1718737782.370747,2.0,0.0,-0.012124071,-0.00397906
1718737782.371895,2.0,0.0,-0.012129427,-0.005643281
1718737782.37315,2.0,0.0,-0.012136226,-0.006990332
1718737782.373742,2.0,0.0,-0.012144118,-0.008003021
1718737782.374895,2.0,0.0,-0.012152746,-0.008679069
1718737782.376083,2.0,0.0,-0.012161762,-0.009029526
1718737782.376674,2.0,0.0,-0.012170839,-0.009076839
1718737782.377831,2.0,0.0,-0.012179687,-0.008852691
1718737782.378975,2.0,0.0,-0.012188057,-0.008395713
1718737782.379561,2.0,0.0,-0.012195745,-0.007749176
1718737782.380709,2.0,0.0,-0.012202601,-0.006958767
1718737782.381846,2.0,0.0,-0.012212172,-0.008245891
1718737782.38299,2.0,0.0,-0.012213931,0.000598552
1718737782.383583,2.0,0.0,-0.012214235,-0.000111088
1718737782.384723,2.0,0.0,-0.012212992,-0.000339422
1718737782.385869,2.0,0.0,-0.012210274,0.000528626
1718737782.387011,2.0,0.0,-0.012206163,0.002254737
1718737782.387663,2.0,0.0,-0.012200657,0.004567775
1718737782.388932,2.0,0.0,-0.012193675,0.007244856
1718737782.390343,2.0,0.0,-0.01218509,0.010106687
1718737782.390793,2.0,0.0,-0.012174779,0.013006438
1718737782.392006,2.0,0.0,-0.012162675,0.017754898
1718737782.39268,2.0,0.0,-0.012151436,0.014048356
1718737782.393951,2.0,0.0,-0.012132799,0.0180985
1718737782.395219,2.0,0.0,-0.012109052,0.021339105
1718737782.395925,2.0,0.0,-0.012082968,0.023029075
1718737782.397212,2.0,0.0,-0.01205672,0.02336307
1718737782.397881,2.0,0.0,-0.012031875,0.022596582
1718737782.399027,2.0,0.0,-0.012009507,0.020954935
1718737782.399613,2.0,0.0,-0.011990307,0.018635241
1718737782.400765,2.0,0.0,-0.011974675,0.015815388
1718737782.401934,2.0,0.0,-0.011962783,0.012659137
1718737782.403061,2.0,0.0,-0.011954632,0.009317448
1718737782.403646,2.0,0.0,-0.011950091,0.005927574
1718737782.404878,2.0,0.0,-0.011948929,0.002611243
1718737782.406068,2.0,0.0,-0.011950844,-0.00052724
1718737782.406727,2.0,0.0,-0.011955484,-0.003402497
1718737782.407918,2.0,0.0,-0.011962467,-0.005948945
1718737782.40909,2.0,0.0,-0.011971391,-0.008120934
1718737782.40973,2.0,0.0,-0.011981855,-0.009892182
1718737782.410889,2.0,0.0,-0.011993463,-0.011254547
1718737782.412095,2.0,0.0,-0.012005839,-0.012216259
1718737782.412708,2.0,0.0,-0.012018633,-0.01279971
1718737782.413978,2.0,0.0,-0.012031532,-0.013038947
1718737782.415101,2.0,0.0,-0.012041172,-0.011742029
1718737782.415693,2.0,0.0,-0.012034626,0.008305491
1718737782.416831,2.0,0.0,-0.012024652,0.015699172
1718737782.417983,2.0,0.0,-0.012035587,0.020236453
1718737782.418562,2.0,0.0,-0.01198727,0.008603229
1718737782.41974,2.0,0.0,-0.011994533,-0.004057189
1718737782.420856,2.0,0.0,-0.012012081,-0.007854564
1718737782.421995,2.0,0.0,-0.012031786,-0.009689846
1718737782.423146,2.0,0.0,-0.012051025,-0.010728933
1718737782.423747,2.0,0.0,-0.012068661,-0.011305856
1718737782.424943,2.0,0.0,-0.012084241,-0.011566482
1718737782.426089,2.0,0.0,-0.012097709,-0.011592742
1718737782.426239,-2.0,0.0,-0.012097709,-0.011592742
1718737782.427282,-2.0,0.0,-0.012109231,-0.011440045
1718737782.427892,-2.0,0.0,-0.012119087,-0.011151594
1718737782.429036,-2.0,0.0,-0.012127595,-0.01076417
1718737782.42962,-2.0,0.0,-0.01213506,-0.010310315
1718737782.430795,-2.0,0.0,-0.012141746,-0.009818983
1718737782.431948,-2.0,0.0,-0.012147866,-0.009315534
1718737782.433068,-2.0,0.0,-0.012153579,-0.008821524
1718737782.433645,-2.0,0.0,-0.012162588,-0.01005117
1718737782.434779,-2.0,0.0,-0.012164392,-0.00137098
1718737782.435907,-2.0,0.0,-0.012165355,-0.002610351
1718737782.437053,-2.0,0.0,-0.012166594,-0.002242314
1718737782.438167,-2.0,0.0,-0.012170179,-0.00888566
1718737782.438736,-2.0,0.0,-0.012167222,-0.00610147
1718737782.439858,-2.0,0.0,-0.012159822,-0.003071249
1718737782.441018,-2.0,0.0,-0.012150448,-0.000774773
1718737782.441635,-2.0,0.0,-0.012140828,0.000827414
1718737782.44274,-2.0,0.0,-0.012132005,0.001862852
1718737782.443854,-2.0,0.0,-0.012124524,0.002438453
1718737782.444991,-2.0,0.0,-0.012118598,0.002637585
1718737782.445586,-2.0,0.0,-0.012114236,0.00252921
1718737782.446737,-2.0,0.0,-0.012111327,0.002174981
1718737782.447893,-2.0,0.0,-0.012109706,0.001632994
1718737782.449087,-2.0,0.0,-0.012109188,0.00095911
1718737782.449709,-2.0,0.0,-0.012109594,0.000206848
1718737782.4509,-2.0,0.0,-0.012110758,-0.000573453
1718737782.452075,-2.0,0.0,-0.012112536,-0.001335715
1718737782.452679,-2.0,0.0,-0.0121148,-0.002039185
1718737782.453835,-2.0,0.0,-0.012117437,-0.002649336
1718737782.454938,-2.0,0.0,-0.01212034,-0.003138506
1718737782.456074,-2.0,0.0,-0.012123405,-0.003486249
1718737782.457217,-2.0,0.0,-0.01212653,-0.003679395
1718737782.457814,-2.0,0.0,-0.012129608,-0.003711831
1718737782.458978,-2.0,0.0,-0.012132531,-0.003584034
1718737782.460088,-2.0,0.0,-0.012135192,-0.003302401
1718737782.461236,-2.0,0.0,-0.012137485,-0.00287842
1718737782.461879,-2.0,0.0,-0.012139311,-0.002327725
1718737782.463062,-2.0,0.0,-0.012140581,-0.001669091
1718737782.464169,-2.0,0.0,-0.012141217,-0.000923415
1718737782.465344,-2.0,0.0,-0.012141159,-0.00011272
1718737782.465864,-2.0,0.0,-0.012140364,0.000740779
1718737782.46709,-2.0,0.0,-0.012138805,0.001615511
1718737782.468245,-2.0,0.0,-0.012136476,0.002491272
1718737782.468785,-2.0,0.0,-0.012133388,0.003349815
1718737782.469922,-2.0,0.0,-0.012129568,0.004175295
1718737782.47106,-2.0,0.0,-0.012125057,0.004954575
1718737782.472193,-2.0,0.0,-0.012119906,0.005677386
1718737782.472745,-2.0,0.0,-0.012114176,0.00633636
1718737782.473891,-2.0,0.0,-0.012107934,0.006926946
1718737782.475046,-2.0,0.0,-0.012101247,0.007447223
1718737782.476198,-2.0,0.0,-0.012094186,0.007897629
1718737782.476784,-2.0,0.0,-0.012086818,0.008280636
1718737782.477913,-2.0,0.0,-0.012076935,0.0094051
1718737782.479072,-2.0,0.0,-0.012062965,0.028744567
1718737782.480254,-2.0,0.0,-0.012004832,0.022708542
1718737782.480795,-2.0,0.0,-0.011996238,0.012998651
1718737782.481964,-2.0,0.0,-0.011997095,0.01061971
1718737782.483078,-2.0,0.0,-0.012000114,0.009558633
1718737782.484265,-2.0,0.0,-0.012002827,0.00891821
1718737782.484786,-2.0,0.0,-0.012004099,0.008491298
1718737782.485993,-2.0,0.0,-0.012003457,0.008206722
1718737782.487126,-2.0,0.0,-0.012000833,0.008033033
1718737782.488256,-2.0,0.0,-0.011996401,0.007952509
1718737782.488866,-2.0,0.0,-0.011990472,0.007951794
1718737782.490034,-2.0,0.0,-0.011983401,0.008018234
1718737782.491112,-2.0,0.0,-0.011975534,0.008138543
1718737782.492256,-2.0,0.0,-0.011967169,0.008298515
1718737782.492848,-2.0,0.0,-0.011958546,0.008483208
1718737782.493991,-2.0,0.0,-0.011949837,0.008677365
1718737782.495127,-2.0,0.0,-0.011941156,0.008865916
1718737782.496281,-2.0,0.0,-0.011932567,0.009034494
1718737782.496854,-2.0,0.0,-0.011924103,0.00916992
1718737782.497996,-2.0,0.0,-0.01191577,0.009260622
1718737782.499147,-2.0,0.0,-0.011907565,0.009296965
1718737782.499727,-2.0,0.0,-0.011900437,0.010671386
1718737782.500857,-2.0,0.0,-0.011896542,0.003650108
1718737782.502005,-2.0,0.0,-0.011886907,0.005106577
1718737782.503143,-2.0,0.0,-0.011873769,0.006059832
1718737782.504282,-2.0,0.0,-0.01185987,0.005741683
1718737782.504867,-2.0,0.0,-0.011847279,0.004368652
1718737782.506009,-2.0,0.0,-0.011837384,0.002215785
1718737782.507153,-2.0,0.0,-0.011831016,-0.000483664
1718737782.508306,-2.0,0.0,-0.011828593,-0.003536931
1718737782.508899,-2.0,0.0,-0.011830226,-0.006781202
1718737782.510046,-2.0,0.0,-0.01183963,-0.012529275
1718737782.51119,-2.0,0.0,-0.011845653,-0.007654306
1718737782.511765,-2.0,0.0,-0.011854606,-0.012445901
1718737782.512934,-2.0,0.0,-0.011865966,-0.016451341
1718737782.5141,-2.0,0.0,-0.011879272,-0.018937253
1718737782.515193,-2.0,0.0,-0.011894018,-0.020077022
1718737782.516346,-2.0,0.0,-0.011909595,-0.020100272
1718737782.516941,-2.0,0.0,-0.01192532,-0.019209247
1718737782.518091,-2.0,0.0,-0.011940495,-0.017582478
1718737782.519251,-2.0,0.0,-0.011954457,-0.01538422
1718737782.519956,-2.0,0.0,-0.011963465,-0.011402034
1718737782.520991,-2.0,0.0,-0.011954023,0.011280855
1718737782.522136,-2.0,0.0,-0.011938837,0.021257753
1718737782.523274,-2.0,0.0,-0.011919999,0.02750228
1718737782.523855,-2.0,0.0,-0.011897955,0.031891875
1718737782.52501,-2.0,0.0,-0.011872987,0.034964597
1718737782.52617,-2.0,0.0,-0.011880165,0.037858419
1718737782.526371,-2.0,0.0,-0.011880165,0.037858419
1718737782.527289,-2.0,0.0,-0.011814707,0.023741772
1718737782.527887,-2.0,0.0,-0.011806312,0.009593925
1718737782.529,-2.0,0.0,-0.011809274,0.004793807
1718737782.530176,-2.0,0.0,-0.011815531,0.00217002
1718737782.531326,-2.0,0.0,-0.011822547,0.000477567
1718737782.531916,-2.0,0.0,-0.011829188,-0.00063998
1718737782.533013,-2.0,0.0,-0.011834913,-0.001332124
1718737782.534157,-2.0,0.0,-0.0118395,-0.00167981
1718737782.534757,-2.0,0.0,-0.011842905,-0.001738705
1718737782.535896,-2.0,0.0,-0.011845183,-0.001555802
1718737782.537031,-2.0,0.0,-0.011846435,-0.001175796
1718737782.538166,-2.0,0.0,-0.011846774,-0.000643031
1718737782.538784,-2.0,0.0,-0.011846304,-1.478e-06
1718737782.539955,-2.0,0.0,-0.011845121,0.000706122
1718737782.54109,-2.0,0.0,-0.011843304,0.001439388
1718737782.542243,-2.0,0.0,-0.011840921,0.002161436
1718737782.542831,-2.0,0.0,-0.011838036,0.002839866
1718737782.544044,-2.0,0.0,-0.01183471,0.003447528
1718737782.545162,-2.0,0.0,-0.011831007,0.003963029
1718737782.545734,-2.0,0.0,-0.011826998,0.00437098
1718737782.54686,-2.0,0.0,-0.011822757,0.004661985
1718737782.548049,-2.0,0.0,-0.011818366,0.004832392
1718737782.549162,-2.0,0.0,-0.01181391,0.004883855
1718737782.550303,-2.0,0.0,-0.011809472,0.004822717
1718737782.550926,-2.0,0.0,-0.011805135,0.004659285
1718737782.552019,-2.0,0.0,-0.011800976,0.00440701
1718737782.553176,-2.0,0.0,-0.011797061,0.00408164
1718737782.554335,-2.0,0.0,-0.011793445,0.003700368
1718737782.554923,-2.0,0.0,-0.01179017,0.003281013
1718737782.556036,-2.0,0.0,-0.01178726,0.002841262
1718737782.557194,-2.0,0.0,-0.011784728,0.002398008
1718737782.558058,-2.0,0.0,-0.011782569,0.001966782
1718737782.559194,-2.0,0.0,-0.011780766,0.001561306
1718737782.560461,-2.0,0.0,-0.011779289,0.001193163
1718737782.561004,-2.0,0.0,-0.011778099,0.000871591
1718737782.562172,-2.0,0.0,-0.011777148,0.000603388
1718737782.563314,-2.0,0.0,-0.011776383,0.000392924
1718737782.563897,-2.0,0.0,-0.011775751,0.000242248
1718737782.565037,-2.0,0.0,-0.011775195,0.000151275
1718737782.566199,-2.0,0.0,-0.011775,0.001832571
1718737782.567405,-2.0,0.0,-0.011777478,-0.004488985
1718737782.567976,-2.0,0.0,-0.011774358,-0.002805983
1718737782.569161,-2.0,0.0,-0.011767774,-0.001523701
1718737782.57028,-2.0,0.0,-0.011760264,-0.001355374
1718737782.570868,-2.0,0.0,-0.011753703,-0.002095983
1718737782.572016,-2.0,0.0,-0.011749309,-0.003492645
1718737782.573162,-2.0,0.0,-0.011747781,-0.005335341
1718737782.573763,-2.0,0.0,-0.011749439,-0.007453726
1718737782.574977,-2.0,0.0,-0.011754323,-0.009706196
1718737782.576117,-2.0,0.0,-0.011762285,-0.011972498
1718737782.577324,-2.0,0.0,-0.011773044,-0.01415001
1718737782.577857,-2.0,0.0,-0.01178624,-0.016152291
1718737782.579005,-2.0,0.0,-0.011801464,-0.017908706
1718737782.580147,-2.0,0.0,-0.011815539,-0.018301781
1718737782.580741,-2.0,0.0,-0.011814409,0.000733063
1718737782.581969,-2.0,0.0,-0.011810856,0.006959804
1718737782.583066,-2.0,0.0,-0.011806694,0.009740944
1718737782.584208,-2.0,0.0,-0.011801994,0.01110969
1718737782.585381,-2.0,0.0,-0.011796606,0.011693488
1718737782.58594,-2.0,0.0,-0.01179044,0.011799076
1718737782.587141,-2.0,0.0,-0.011783523,0.011613383
1718737782.588259,-2.0,0.0,-0.011775973,0.011266202
1718737782.588888,-2.0,0.0,-0.01176796,0.01085593
1718737782.589997,-2.0,0.0,-0.011759662,0.010460777
1718737782.591151,-2.0,0.0,-0.011751231,0.010143498
1718737782.592296,-2.0,0.0,-0.011742767,0.009953298
1718737782.592878,-2.0,0.0,-0.011738074,0.007290817
1718737782.594057,-2.0,0.0,-0.011726727,0.015059666
1718737782.595175,-2.0,0.0,-0.011714918,0.013744367
1718737782.596329,-2.0,0.0,-0.01170241,0.013147376
1718737782.596921,-2.0,0.0,-0.011689049,0.013883076
1718737782.598065,-2.0,0.0,-0.011674654,0.015719059
1718737782.599205,-2.0,0.0,-0.011658943,0.018382222
1718737782.599799,-2.0,0.0,-0.011641565,0.021636666
1718737782.600996,-2.0,0.0,-0.01162215,0.025279761
1718737782.602139,-2.0,0.0,-0.01164878,0.030111665
1718737782.603273,-2.0,0.0,-0.011584435,0.017946511
1718737782.603874,-2.0,0.0,-0.011579666,0.006951795
1718737782.605001,-2.0,0.0,-0.011584973,0.00585614
1718737782.606154,-2.0,0.0,-0.011591146,0.007215738
1718737782.607307,-2.0,0.0,-0.011595026,0.009564562
1718737782.607906,-2.0,0.0,-0.011595133,0.012356258
1718737782.609064,-2.0,0.0,-0.011591562,0.016863393
1718737782.610243,-2.0,0.0,-0.01158607,0.013144746
1718737782.611501,-2.0,0.0,-0.011570351,0.0173407
1718737782.612046,-2.0,0.0,-0.011547184,0.020750806
1718737782.613204,-2.0,0.0,-0.011519974,0.022555061
1718737782.614365,-2.0,0.0,-0.011491521,0.022906398
1718737782.614957,-2.0,0.0,-0.011463944,0.022035813
1718737782.61613,-2.0,0.0,-0.011438773,0.020155009
1718737782.617278,-2.0,0.0,-0.011417054,0.017455897
1718737782.617942,-2.0,0.0,-0.011399449,0.014118284
1718737782.619105,-2.0,0.0,-0.011386313,0.010313986
1718737782.620239,-2.0,0.0,-0.011377765,0.006207194
1718737782.621384,-2.0,0.0,-0.011373743,0.001952594
1718737782.621973,-2.0,0.0,-0.011374045,-0.002307471
1718737782.623118,-2.0,0.0,-0.011378372,-0.006445921
1718737782.624288,-2.0,0.0,-0.011386354,-0.010353438
1718737782.624858,-2.0,0.0,-0.011397573,-0.013940272
1718737782.62604,-2.0,0.0,-0.011411586,-0.017137243
1718737782.626254,-2.0,0.0,-0.011411586,-0.017137243
1718737782.627198,-2.0,0.0,-0.011427938,-0.019895908
1718737782.627843,-2.0,0.0,-0.011446175,-0.02218797
1718737782.628962,-2.0,0.0,-0.011465855,-0.024003986
1718737782.630112,-2.0,0.0,-0.011486556,-0.02535151
1718737782.631326,-2.0,0.0,-0.011507886,-0.026252787
1718737782.631929,-2.0,0.0,-0.011529487,-0.026742142
1718737782.633106,-2.0,0.0,-0.011554889,-0.029199716
1718737782.634227,-2.0,0.0,-0.011572993,-0.020900069
1718737782.635369,-2.0,0.0,-0.011587342,-0.021149832
1718737782.635976,-2.0,0.0,-0.011585074,-0.002343157
1718737782.63711,-2.0,0.0,-0.011578681,0.005088609
1718737782.638259,-2.0,0.0,-0.011570049,0.009890434
1718737782.638896,-2.0,0.0,-0.011559347,0.013735933
1718737782.640047,-2.0,0.0,-0.011546501,0.016994319
1718737782.641179,-2.0,0.0,-0.011531473,0.01977829
1718737782.641781,-2.0,0.0,-0.011514332,0.022126594
1718737782.642928,-2.0,0.0,-0.011495256,0.024055971
1718737782.644054,-2.0,0.0,-0.011474511,0.025580804
1718737782.645227,-2.0,0.0,-0.011452427,0.02672078
1718737782.64582,-2.0,0.0,-0.011429361,0.027503211
1718737782.646976,-2.0,0.0,-0.011405672,0.027962825
1718737782.648119,-2.0,0.0,-0.011381701,0.028140352
1718737782.649225,-2.0,0.0,-0.011357747,0.028080559
1718737782.64989,-2.0,0.0,-0.011334062,0.027830145
1718737782.651034,-2.0,0.0,-0.011310839,0.027435673
1718737782.652185,-2.0,0.0,-0.011288216,0.026941707
1718737782.65278,-2.0,0.0,-0.011266275,0.026389218
1718737782.653907,-2.0,0.0,-0.011245046,0.025814309
1718737782.655213,-2.0,0.0,-0.011224519,0.025247284
1718737782.656429,-2.0,0.0,-0.011204651,0.024712058
1718737782.656973,-2.0,0.0,-0.011185373,0.024225899
1718737782.658131,-2.0,0.0,-0.011166599,0.023799469
1718737782.659264,-2.0,0.0,-0.01114824,0.023437135
1718737782.659839,-2.0,0.0,-0.011130203,0.023137501
1718737782.660984,-2.0,0.0,-0.011112404,0.022894121
1718737782.662143,-2.0,0.0,-0.011095918,0.024238501
1718737782.663407,-2.0,0.0,-0.011082225,0.01692986
1718737782.663937,-2.0,0.0,-0.011062008,0.018449766
1718737782.665061,-2.0,0.0,-0.011037722,0.01953158
1718737782.666199,-2.0,0.0,-0.011012341,0.019348875
1718737782.667349,-2.0,0.0,-0.010988112,0.018104227
1718737782.667919,-2.0,0.0,-0.010966543,0.01606096
1718737782.669066,-2.0,0.0,-0.010948545,0.013439495
1718737782.670226,-2.0,0.0,-0.010934587,0.010419529
1718737782.671391,-2.0,0.0,-0.010924812,0.007151658
1718737782.671957,-2.0,0.0,-0.010919139,0.003765378
1718737782.673113,-2.0,0.0,-0.010917332,0.0003731
1718737782.674271,-2.0,0.0,-0.010919061,-0.002928364
1718737782.674842,-2.0,0.0,-0.01092394,-0.006057546
1718737782.675963,-2.0,0.0,-0.010931562,-0.008948471
1718737782.677104,-2.0,0.0,-0.010941516,-0.011550718
1718737782.678346,-2.0,0.0,-0.010949489,-0.012248712
1718737782.678943,-2.0,0.0,-0.010943168,0.006171382
1718737782.680083,-2.0,0.0,-0.010935472,0.011838522
1718737782.681231,-2.0,0.0,-0.010928094,0.013991473
1718737782.681947,-2.0,0.0,-0.010920958,0.014667785
1718737782.683178,-2.0,0.0,-0.010913801,0.014495336
1718737782.684346,-2.0,0.0,-0.01092157,0.014284281
1718737782.684903,-2.0,0.0,-0.010874993,-0.000404411
1718737782.686042,-2.0,0.0,-0.010887519,-0.014348297
1718737782.687301,-2.0,0.0,-0.010911608,-0.019554782
1718737782.688436,-2.0,0.0,-0.010938812,-0.022389488
1718737782.689022,-2.0,0.0,-0.01096633,-0.023981153
1718737782.690292,-2.0,0.0,-0.010992804,-0.024692483
1718737782.691493,-2.0,0.0,-0.011017515,-0.024713777
1718737782.692105,-2.0,0.0,-0.011040108,-0.024179219
1718737782.693288,-2.0,0.0,-0.011060452,-0.02320121
1718737782.693889,-2.0,0.0,-0.011078556,-0.021882186
1718737782.695091,-2.0,0.0,-0.011094507,-0.020318015
1718737782.696275,-2.0,0.0,-0.011108436,-0.018597977
1718737782.696964,-2.0,0.0,-0.011120495,-0.016803472
1718737782.698101,-2.0,0.0,-0.011130845,-0.015006444
1718737782.699275,-2.0,0.0,-0.011139651,-0.01326799
1718737782.699901,-2.0,0.0,-0.011147077,-0.011637366
1718737782.701065,-2.0,0.0,-0.011153286,-0.010151476
1718737782.702306,-2.0,0.0,-0.011158439,-0.008834859
1718737782.702948,-2.0,0.0,-0.011162694,-0.007700149
1718737782.704165,-2.0,0.0,-0.0111662,-0.006748939
1718737782.70534,-2.0,0.0,-0.011169101,-0.005972999
1718737782.706056,-2.0,0.0,-0.011171525,-0.005355751
1718737782.707178,-2.0,0.0,-0.011177428,-0.00726836
1718737782.708348,-2.0,0.0,-0.011176274,0.001014954
1718737782.708926,-2.0,0.0,-0.011174318,-0.000372303
1718737782.710077,-2.0,0.0,-0.011171558,-0.001306563
1718737782.711223,-2.0,0.0,-0.011168103,-0.001076287
1718737782.712377,-2.0,0.0,-0.011163988,0.000133462
1718737782.712966,-2.0,0.0,-0.011159087,0.002093846
1718737782.714156,-2.0,0.0,-0.011153136,0.004615245
1718737782.7153,-2.0,0.0,-0.011145794,0.007541971
1718737782.715885,-2.0,0.0,-0.011136697,0.010740825
1718737782.717034,-2.0,0.0,-0.011126448,0.015510652
1718737782.718186,-2.0,0.0,-0.011116816,0.012100838
1718737782.719333,-2.0,0.0,-0.011098779,0.017032888
1718737782.719993,-2.0,0.0,-0.011074415,0.021429773
1718737782.721141,-2.0,0.0,-0.011046421,0.024446409
1718737782.722276,-2.0,0.0,-0.011016928,0.026234088
1718737782.723416,-2.0,0.0,-0.010987473,0.027016141
1718737782.724003,-2.0,0.0,-0.010959111,0.02698749
1718737782.725155,-2.0,0.0,-0.010932531,0.026315347
1718737782.726298,2.0,0.0,-0.010932531,0.026315347
1718737782.726347,2.0,0.0,-0.01090814,0.025148834
1718737782.727462,2.0,0.0,-0.010886138,0.023624997
1718737782.728058,2.0,0.0,-0.010866566,0.02187092
1718737782.729255,2.0,0.0,-0.010849352,0.020003388
1718737782.730456,2.0,0.0,-0.010834333,0.018127402
1718737782.730973,2.0,0.0,-0.01082129,0.016334402
1718737782.732177,2.0,0.0,-0.010809959,0.014700716
1718737782.733364,2.0,0.0,-0.010800053,0.013286502
1718737782.734047,2.0,0.0,-0.01079127,0.012135279
1718737782.735244,2.0,0.0,-0.010783307,0.0112741
1718737782.736442,2.0,0.0,-0.010775868,0.010714299
1718737782.737043,2.0,0.0,-0.01076867,0.01045276
1718737782.738242,2.0,0.0,-0.010794708,0.011129991
1718737782.73945,2.0,0.0,-0.010748991,-0.003285676
1718737782.740071,2.0,0.0,-0.010761727,-0.015799317
1718737782.741274,2.0,0.0,-0.010785626,-0.019196947
1718737782.742451,2.0,0.0,-0.010811843,-0.019974748
1718737782.743075,2.0,0.0,-0.010837205,-0.019401179
1718737782.74424,2.0,0.0,-0.010860073,-0.017955459
1718737782.745421,2.0,0.0,-0.010879556,-0.015925165
1718737782.746039,2.0,0.0,-0.010892836,-0.012795649
1718737782.74722,2.0,0.0,-0.010887627,0.008709079
1718737782.748468,2.0,0.0,-0.010876393,0.017835713
1718737782.74916,2.0,0.0,-0.010861261,0.023262219
1718737782.750349,2.0,0.0,-0.010842844,0.026820541
1718737782.751005,2.0,0.0,-0.010821649,0.029033799
1718737782.752193,2.0,0.0,-0.010798295,0.030154047
1718737782.753376,2.0,0.0,-0.010773519,0.030350161
1718737782.753993,2.0,0.0,-0.010748114,0.029763528
1718737782.755174,2.0,0.0,-0.010722871,0.028528425
1718737782.756336,2.0,0.0,-0.010698512,0.026778408
1718737782.756936,2.0,0.0,-0.010675644,0.024646436
1718737782.758117,2.0,0.0,-0.010654735,0.022262297
1718737782.759302,2.0,0.0,-0.010636098,0.019749127
1718737782.760471,2.0,0.0,-0.010619891,0.017219921
1718737782.76108,2.0,0.0,-0.010606129,0.014774523
1718737782.762253,2.0,0.0,-0.010594704,0.012497319
1718737782.76312,2.0,0.0,-0.010585404,0.010455722
1718737782.76435,2.0,0.0,-0.010577945,0.008699467
1718737782.765491,2.0,0.0,-0.010571991,0.00726066
1718737782.766101,2.0,0.0,-0.010567179,0.006154513
1718737782.767287,2.0,0.0,-0.010564766,0.006585514
1718737782.768481,2.0,0.0,-0.010565416,-0.000934711
1718737782.769674,2.0,0.0,-0.010559708,0.000443045
1718737782.770293,2.0,0.0,-0.010549768,0.001703259
1718737782.771478,2.0,0.0,-0.010538281,0.00198809
1718737782.772103,2.0,0.0,-0.010527259,0.001454275
1718737782.773271,2.0,0.0,-0.010518014,0.000321037
1718737782.774444,2.0,0.0,-0.010511312,-0.0012334
1718737782.775086,2.0,0.0,-0.010507518,-0.003069628
1718737782.776225,2.0,0.0,-0.01051064,-0.007575291
1718737782.777404,2.0,0.0,-0.010510025,-0.001872612
1718737782.778025,2.0,0.0,-0.010511326,-0.005619099
1718737782.779194,2.0,0.0,-0.010514266,-0.008806736
1718737782.780356,2.0,0.0,-0.010518687,-0.010687487
1718737782.780974,2.0,0.0,-0.010524346,-0.011427244
1718737782.782164,2.0,0.0,-0.010530844,-0.011244049
1718737782.783345,2.0,0.0,-0.010537662,-0.010323523
1718737782.784515,2.0,0.0,-0.010544226,-0.0088232
1718737782.785126,2.0,0.0,-0.010549971,-0.006882938
1718737782.786292,2.0,0.0,-0.010554392,-0.004631105
1718737782.787467,2.0,0.0,-0.01055708,-0.002186725
1718737782.788092,2.0,0.0,-0.01055774,0.000340831
1718737782.78925,2.0,0.0,-0.010556203,0.00285327
1718737782.790424,2.0,0.0,-0.010552424,0.005265082
1718737782.791037,2.0,0.0,-0.010546466,0.007505008
1718737782.792222,2.0,0.0,-0.010538485,0.009517013
1718737782.793377,2.0,0.0,-0.010528711,0.011260663
1718737782.794091,2.0,0.0,-0.010517426,0.01271089
1718737782.795232,2.0,0.0,-0.01050494,0.013857198
1718737782.796351,2.0,0.0,-0.010491574,0.014702378
1718737782.796945,2.0,0.0,-0.01047452,0.016375065
1718737782.798098,2.0,0.0,-0.010441907,0.036350982
1718737782.799232,2.0,0.0,-0.010406852,0.043319483
1718737782.80038,2.0,0.0,-0.010371537,0.04634487
1718737782.800972,2.0,0.0,-0.010336359,0.047470976
1718737782.802114,2.0,0.0,-0.010301451,0.047369386
1718737782.803255,2.0,0.0,-0.010266965,0.046404853
1718737782.804402,2.0,0.0,-0.010253579,0.045300822
1718737782.804991,2.0,0.0,-0.010179586,0.029116024
1718737782.806141,2.0,0.0,-0.010167488,0.014569966
1718737782.807312,2.0,0.0,-0.010168656,0.008462803
1718737782.807897,2.0,0.0,-0.010174329,0.004765166
1718737782.80906,2.0,0.0,-0.010181469,0.002413605
1718737782.810186,2.0,0.0,-0.010188472,0.001071961
1718737782.811343,2.0,0.0,-0.010194371,0.000562577
1718737782.81191,2.0,0.0,-0.010198575,0.000753245
1718737782.813063,2.0,0.0,-0.010200738,0.001524079
1718737782.81421,2.0,0.0,-0.010200689,0.002756959
1718737782.815356,2.0,0.0,-0.010198374,0.004333615
1718737782.816498,2.0,0.0,-0.010193824,0.006137264
1718737782.817086,2.0,0.0,-0.010187132,0.008055572
1718737782.818268,2.0,0.0,-0.01017844,0.009983882
1718737782.819386,2.0,0.0,-0.010167927,0.011828154
1718737782.819985,2.0,0.0,-0.010155803,0.013507367
1718737782.821122,2.0,0.0,-0.010142305,0.014955244
1718737782.822268,2.0,0.0,-0.010127692,0.016121263
1718737782.823108,2.0,0.0,-0.010112236,0.016970962
1718737782.82425,2.0,0.0,-0.010096219,0.017485603
1718737782.825392,2.0,0.0,-0.010079924,0.017661246
1718737782.825991,2.0,0.0,-0.01006497,0.018995776
1718737782.826292,-2.0,0.0,-0.01006497,0.018995776
1718737782.827196,-2.0,0.0,-0.010052508,0.011644587
1718737782.828291,-2.0,0.0,-0.010033928,0.0124507
1718737782.828881,-2.0,0.0,-0.010011965,0.012634167
1718737782.830034,-2.0,0.0,-0.009989781,0.011440436
1718737782.831211,-2.0,0.0,-0.009969739,0.009121446
1718737782.832319,-2.0,0.0,-0.009953394,0.00599015
1718737782.833501,-2.0,0.0,-0.009941649,0.002316501
1718737782.834609,-2.0,0.0,-0.009938832,-0.004233285
1718737782.835193,-2.0,0.0,-0.009934724,-0.000827857
1718737782.83636,-2.0,0.0,-0.009934579,-0.006533703
1718737782.837476,-2.0,0.0,-0.009938081,-0.011597077
1718737782.838144,-2.0,0.0,-0.009944971,-0.015219744
1718737782.839306,-2.0,0.0,-0.009954821,-0.017519492
1718737782.840408,-2.0,0.0,-0.009966987,-0.018678315
1718737782.841119,-2.0,0.0,-0.009980672,-0.018858644
1718737782.84216,-2.0,0.0,-0.009995013,-0.018206886
1718737782.8433,-2.0,0.0,-0.010009159,-0.016862575
1718737782.84446,-2.0,0.0,-0.010022335,-0.014963097
1718737782.845045,-2.0,0.0,-0.010033889,-0.012644274
1718737782.846223,-2.0,0.0,-0.010043316,-0.010038434
1718737782.8474,-2.0,0.0,-0.010050268,-0.007271329
1718737782.848482,-2.0,0.0,-0.010054558,-0.004458814
1718737782.849094,-2.0,0.0,-0.010056144,-0.001703836
1718737782.850249,-2.0,0.0,-0.010052207,0.001866099
1718737782.851382,-2.0,0.0,-0.01003097,0.023583181
1718737782.85263,-2.0,0.0,-0.010005261,0.032469301
1718737782.853291,-2.0,0.0,-0.00997727,0.037360088
1718737782.854485,-2.0,0.0,-0.009947526,0.040214054
1718737782.855089,-2.0,0.0,-0.009916378,0.041647834
1718737782.856201,-2.0,0.0,-0.009884246,0.041991319
1718737782.857342,-2.0,0.0,-0.009851645,0.041478506
1718737782.858567,-2.0,0.0,-0.009819145,0.040303555
1718737782.859179,-2.0,0.0,-0.009787315,0.03864109
1718737782.8603,-2.0,0.0,-0.009756667,0.036652605
1718737782.86144,-2.0,0.0,-0.009727612,0.034486936
1718737782.862364,-2.0,0.0,-0.009730944,0.032720427
1718737782.863497,-2.0,0.0,-0.009662038,0.015780333
1718737782.864628,-2.0,0.0,-0.009658381,0.001642244
1718737782.865209,-2.0,0.0,-0.009668976,-0.003924149
1718737782.866362,-2.0,0.0,-0.009684306,-0.006808989
1718737782.86751,-2.0,0.0,-0.009700833,-0.008122739
1718737782.868173,-2.0,0.0,-0.009716559,-0.008266051
1718737782.869294,-2.0,0.0,-0.009730214,-0.00748002
1718737782.870458,-2.0,0.0,-0.009740997,-0.005955881
1718737782.871574,-2.0,0.0,-0.009748447,-0.003866456
1718737782.872138,-2.0,0.0,-0.009752363,-0.001375435
1718737782.873284,-2.0,0.0,-0.009752737,0.001361611
1718737782.874401,-2.0,0.0,-0.009749707,0.004199389
1718737782.875555,-2.0,0.0,-0.009743515,0.007005977
1718737782.876139,-2.0,0.0,-0.00973448,0.00966581
1718737782.877288,-2.0,0.0,-0.00972297,0.012082068
1718737782.878428,-2.0,0.0,-0.009709384,0.014178246
1718737782.879039,-2.0,0.0,-0.009694139,0.015898847
1718737782.880157,-2.0,0.0,-0.009677649,0.017209228
1718737782.881298,-2.0,0.0,-0.009660325,0.018094658
1718737782.88244,-2.0,0.0,-0.009642553,0.018558716
1718737782.883691,-2.0,0.0,-0.009624696,0.018621151
1718737782.884298,-2.0,0.0,-0.009608458,0.019807855
1718737782.885447,-2.0,0.0,-0.009594837,0.012363051
1718737782.886629,-2.0,0.0,-0.00957534,0.012974728
1718737782.887267,-2.0,0.0,-0.009552689,0.01300577
1718737782.888429,-2.0,0.0,-0.009530009,0.01171752
1718737782.889572,-2.0,0.0,-0.009509608,0.009370764
1718737782.890751,-2.0,0.0,-0.009492975,0.006284189
1718737782.89135,-2.0,0.0,-0.009484876,-7.889e-06
1718737782.892503,-2.0,0.0,-0.009475544,0.003502293
1718737782.893637,-2.0,0.0,-0.009470217,-0.001972571
1718737782.894259,-2.0,0.0,-0.009468726,-0.006881828
1718737782.895395,-2.0,0.0,-0.009470898,-0.01041898
1718737782.896557,-2.0,0.0,-0.009476333,-0.01268716
1718737782.897146,-2.0,0.0,-0.009484379,-0.013853225
1718737782.898327,-2.0,0.0,-0.009494209,-0.014065622
1718737782.899433,-2.0,0.0,-0.009504919,-0.013458383
1718737782.900785,-2.0,0.0,-0.009515611,-0.012160412
1718737782.901228,-2.0,0.0,-0.009525466,-0.010300278
1718737782.902413,-2.0,0.0,-0.009533784,-0.008006838
1718737782.903555,-2.0,0.0,-0.009540022,-0.005407331
1718737782.904173,-2.0,0.0,-0.009543795,-0.002624274
1718737782.905335,-2.0,0.0,-0.009544884,0.000227929
1718737782.906458,-2.0,0.0,-0.009543221,0.003046127
1718737782.90764,-2.0,0.0,-0.009538869,0.005740985
1718737782.908203,-2.0,0.0,-0.009529125,0.009118193
1718737782.909346,-2.0,0.0,-0.009502579,0.030622548
1718737782.910499,-2.0,0.0,-0.009472041,0.039308919
1718737782.911647,-2.0,0.0,-0.009439639,0.043988323
1718737782.912219,-2.0,0.0,-0.009405836,0.046632314
1718737782.913357,-2.0,0.0,-0.009370919,0.047864884
1718737782.91452,-2.0,0.0,-0.009370014,0.048442633
1718737782.915668,-2.0,0.0,-0.009288602,0.032339234
1718737782.916245,-2.0,0.0,-0.009272312,0.018837888
1718737782.917387,-2.0,0.0,-0.009269627,0.013124024
1718737782.918582,-2.0,0.0,-0.009271428,0.009500705
1718737782.919146,-2.0,0.0,-0.009274725,0.006969006
1718737782.92029,-2.0,0.0,-0.009278055,0.005239042
1718737782.921408,-2.0,0.0,-0.009280602,0.004182727
1718737782.922554,-2.0,0.0,-0.00928191,0.003719757
1718737782.923158,-2.0,0.0,-0.009281742,0.003781808
1718737782.924339,-2.0,0.0,-0.009279985,0.004299657
1718737782.925434,-2.0,0.0,-0.009276606,0.005199403
1718737782.926293,2.0,0.0,-0.009276606,0.005199403
1718737782.926597,2.0,0.0,-0.009271609,0.006402709
1718737782.927172,2.0,0.0,-0.009265021,0.007828797
1718737782.928373,2.0,0.0,-0.009256884,0.009397098
1718737782.929496,2.0,0.0,-0.009247253,0.011029997
1718737782.930647,2.0,0.0,-0.009236195,0.012655356
1718737782.931228,2.0,0.0,-0.009223797,0.014208661
1718737782.932378,2.0,0.0,-0.009210165,0.015634674
1718737782.933555,2.0,0.0,-0.009195429,0.016888591
1718737782.934128,2.0,0.0,-0.009179737,0.017936661
1718737782.935265,2.0,0.0,-0.009165085,0.020076459
1718737782.93642,2.0,0.0,-0.009151832,0.013652162
1718737782.937565,2.0,0.0,-0.009131197,0.015467514
1718737782.938191,2.0,0.0,-0.009105964,0.016710507
1718737782.939345,2.0,0.0,-0.009083425,0.014390503
1718737782.940453,2.0,0.0,-0.009055884,0.020730208
1718737782.941602,2.0,0.0,-0.009029895,0.016978632
1718737782.942187,2.0,0.0,-0.009006635,0.013006748
1718737782.943327,2.0,0.0,-0.00898704,0.009767954
1718737782.944479,2.0,0.0,-0.008971543,0.007244501
1718737782.945072,2.0,0.0,-0.008960073,0.005344901
1718737782.946223,2.0,0.0,-0.008952187,0.003997522
1718737782.947371,2.0,0.0,-0.008947209,0.003148131
1718737782.948519,2.0,0.0,-0.008944347,0.002749044
1718737782.949117,2.0,0.0,-0.008942793,0.002751813
1718737782.950254,2.0,0.0,-0.008941788,0.00310396
1718737782.951405,2.0,0.0,-0.008940675,0.003748502
1718737782.952567,2.0,0.0,-0.008938921,0.004625085
1718737782.953729,2.0,0.0,-0.00893613,0.005671912
1718737782.954328,2.0,0.0,-0.008932043,0.006827924
1718737782.955478,2.0,0.0,-0.008926523,0.008034936
1718737782.956628,2.0,0.0,-0.008919542,0.009239511
1718737782.957327,2.0,0.0,-0.008911159,0.010394505
1718737782.958446,2.0,0.0,-0.008901498,0.01146019
1718737782.95958,2.0,0.0,-0.008890728,0.012404988
1718737782.960718,2.0,0.0,-0.00887905,0.013205782
1718737782.961315,2.0,0.0,-0.008866671,0.013847874
1718737782.962472,2.0,0.0,-0.008853803,0.014324606
1718737782.963583,2.0,0.0,-0.008840645,0.014636712
1718737782.964152,2.0,0.0,-0.008824133,0.015746455
1718737782.965317,2.0,0.0,-0.008793711,0.035137199
1718737782.96649,2.0,0.0,-0.008791282,0.042205784
1718737782.96782,2.0,0.0,-0.008713208,0.030092191
1718737782.96841,2.0,0.0,-0.008700367,0.019807901
1718737782.969554,2.0,0.0,-0.008700357,0.016033052
1718737782.970162,2.0,0.0,-0.008703609,0.013699465
1718737782.971294,2.0,0.0,-0.008706912,0.011972299
1718737782.972446,2.0,0.0,-0.008708798,0.010635175
1718737782.973596,2.0,0.0,-0.008708643,0.009609852
1718737782.974228,2.0,0.0,-0.008706317,0.008860942
1718737782.975344,2.0,0.0,-0.008701988,0.008366388
1718737782.976511,2.0,0.0,-0.008695968,0.008106086
1718737782.977708,2.0,0.0,-0.00868862,0.008057534
1718737782.978261,2.0,0.0,-0.008680286,0.008194604
1718737782.979432,2.0,0.0,-0.00867125,0.008487787
1718737782.980544,2.0,0.0,-0.008661723,0.008905116
1718737782.98114,2.0,0.0,-0.008651842,0.009413382
1718737782.982274,2.0,0.0,-0.008641682,0.009979416
1718737782.983416,2.0,0.0,-0.00863127,0.010571318
1718737782.984558,2.0,0.0,-0.008620601,0.011159552
1718737782.985808,2.0,0.0,-0.008609656,0.011717858
1718737782.986395,2.0,0.0,-0.008598414,0.012223943
1718737782.987587,2.0,0.0,-0.00858686,0.01265996
1718737782.988154,2.0,0.0,-0.008574995,0.013012753
1718737782.989276,2.0,0.0,-0.008562834,0.013273893
1718737782.990422,2.0,0.0,-0.008554555,0.011784743
1718737782.991595,2.0,0.0,-0.008540111,0.019723596
1718737782.992177,2.0,0.0,-0.00852383,0.018241742
1718737782.993324,2.0,0.0,-0.008507603,0.018613281
1718737782.994478,2.0,0.0,-0.008491829,0.011574872
1718737782.995631,2.0,0.0,-0.008468301,0.013818944
1718737782.996228,2.0,0.0,-0.008440078,0.016372531
1718737782.997359,2.0,0.0,-0.008410363,0.018207183
1718737782.998518,2.0,0.0,-0.008381335,0.019360237
1718737782.999663,2.0,0.0,-0.008354259,0.019959411
1718737783.00028,2.0,0.0,-0.008329728,0.020110881
1718737783.001398,2.0,0.0,-0.008307891,0.019896492
1718737783.002607,2.0,0.0,-0.008288623,0.01938302
1718737783.003232,2.0,0.0,-0.00827165,0.018629355
1718737783.004348,2.0,0.0,-0.008256638,0.017690361
1718737783.005513,2.0,0.0,-0.00824325,0.016618329
1718737783.006152,2.0,0.0,-0.008231177,0.015463031
1718737783.007292,2.0,0.0,-0.008220161,0.014271063
1718737783.008435,2.0,0.0,-0.008209998,0.013084945
1718737783.009578,2.0,0.0,-0.008200532,0.011942218
1718737783.010223,2.0,0.0,-0.008191649,0.0108747
1718737783.01134,2.0,0.0,-0.008183265,0.009907972
1718737783.01248,2.0,0.0,-0.008175312,0.00906112
1718737783.013633,2.0,0.0,-0.008167734,0.008346735
1718737783.014236,2.0,0.0,-0.008160475,0.007771165
1718737783.015384,2.0,0.0,-0.008153476,0.007334972
1718737783.016527,2.0,0.0,-0.008146674,0.007033567
1718737783.017114,2.0,0.0,-0.008140005,0.006857977
1718737783.018255,2.0,0.0,-0.008133399,0.006795705
1718737783.019402,2.0,0.0,-0.008161616,0.008200498
1718737783.020574,2.0,0.0,-0.008086555,0.011846213
1718737783.02171,2.0,0.0,-0.008079798,0.007714613
1718737783.022299,2.0,0.0,-0.008086659,0.007304132
1718737783.023443,2.0,0.0,-0.008096719,0.007441504
1718737783.024582,2.0,0.0,-0.008106125,0.007692438
1718737783.02518,2.0,0.0,-0.008112947,0.007966701
1718737783.026232,2.0,0.0,-0.008112947,0.007966701
1718737783.026323,2.0,0.0,-0.008116297,0.008232399
1718737783.027474,2.0,0.0,-0.008115982,0.008473497
1718737783.028624,2.0,0.0,-0.00811227,0.008680948
1718737783.029215,2.0,0.0,-0.008105702,0.008850099
1718737783.030365,2.0,0.0,-0.008096945,0.008979654
1718737783.031515,2.0,0.0,-0.008086675,0.009071034
1718737783.032671,2.0,0.0,-0.008075509,0.009127843
1718737783.033264,2.0,0.0,-0.008063956,0.009155361
1718737783.034408,2.0,0.0,-0.008052401,0.009160053
1718737783.03555,2.0,0.0,-0.008041105,0.009149113
1718737783.036158,2.0,0.0,-0.008030215,0.009130049
1718737783.037332,2.0,0.0,-0.00801979,0.009110325
1718737783.038482,2.0,0.0,-0.008009815,0.009097053
1718737783.039626,2.0,0.0,-0.008000229,0.009096748
1718737783.040215,2.0,0.0,-0.007990939,0.009115134
1718737783.041365,2.0,0.0,-0.007981839,0.009157011
1718737783.042552,2.0,0.0,-0.007972822,0.009226163
1718737783.043682,2.0,0.0,-0.007963786,0.009325317
1718737783.044279,2.0,0.0,-0.007954644,0.009456146
1718737783.045412,2.0,0.0,-0.00794532,0.009619299
1718737783.046551,2.0,0.0,-0.007935757,0.00981447
1718737783.047143,2.0,0.0,-0.007930126,0.008017903
1718737783.048294,2.0,0.0,-0.007918459,0.015886354
1718737783.04947,2.0,0.0,-0.007904686,0.01468107
1718737783.050613,2.0,0.0,-0.007889014,0.013855141
1718737783.051218,2.0,0.0,-0.007872109,0.014188129
1718737783.052371,2.0,0.0,-0.007854491,0.01548121
1718737783.053505,2.0,0.0,-0.00783639,0.01747896
1718737783.054652,2.0,0.0,-0.007819059,0.021925631
1718737783.05525,2.0,0.0,-0.007801903,0.018073017
1718737783.056393,2.0,0.0,-0.007776238,0.022564525
1718737783.057537,2.0,0.0,-0.007744691,0.026728866
1718737783.058697,2.0,0.0,-0.00771028,0.029643536
1718737783.059289,2.0,0.0,-0.007675241,0.031417083
1718737783.060439,2.0,0.0,-0.007641065,0.032233347
1718737783.061573,2.0,0.0,-0.007608678,0.032250891
1718737783.062155,2.0,0.0,-0.007578605,0.031604948
1718737783.063297,2.0,0.0,-0.007551097,0.030417756
1718737783.064452,2.0,0.0,-0.007526218,0.028804964
1718737783.065577,2.0,0.0,-0.007503915,0.026877901
1718737783.066172,2.0,0.0,-0.007484065,0.024743209
1718737783.067302,2.0,0.0,-0.007466499,0.022501152
1718737783.068441,2.0,0.0,-0.007451028,0.02024346
1718737783.069582,2.0,0.0,-0.00743745,0.018051269
1718737783.070169,2.0,0.0,-0.007425558,0.015993429
1718737783.07132,2.0,0.0,-0.007415143,0.014125347
1718737783.072445,2.0,0.0,-0.00745197,0.012662224
1718737783.073578,2.0,0.0,-0.007385096,-0.004674554
1718737783.074178,2.0,0.0,-0.007394527,-0.016524138
1718737783.07531,2.0,0.0,-0.007419044,-0.021039977
1718737783.076438,2.0,0.0,-0.007443779,-0.022169689
1718737783.077579,2.0,0.0,-0.007455738,-0.003191633
1718737783.078169,2.0,0.0,-0.007465256,0.00414541
1718737783.079305,2.0,0.0,-0.007472329,0.00843881
1718737783.080448,2.0,0.0,-0.007475898,0.011534299
1718737783.081584,2.0,0.0,-0.007475277,0.013893795
1718737783.082173,2.0,0.0,-0.007470313,0.015687975
1718737783.08332,2.0,0.0,-0.007461308,0.01699383
1718737783.084451,2.0,0.0,-0.007448889,0.017855308
1718737783.085594,2.0,0.0,-0.007433864,0.018308047
1718737783.086186,2.0,0.0,-0.007417102,0.018389742
1718737783.087336,2.0,0.0,-0.007399437,0.018143717
1718737783.08847,2.0,0.0,-0.007381605,0.017619197
1718737783.089612,2.0,0.0,-0.007364203,0.016869983
1718737783.090228,2.0,0.0,-0.00734768,0.015952441
1718737783.091346,2.0,0.0,-0.007332332,0.0149233
1718737783.092471,2.0,0.0,-0.007318316,0.01383752
1718737783.093611,2.0,0.0,-0.007305674,0.012746401
1718737783.094172,2.0,0.0,-0.007294352,0.011696011
1718737783.095296,2.0,0.0,-0.007284226,0.010725982
1718737783.096428,2.0,0.0,-0.007275124,0.009868676
1718737783.097576,2.0,0.0,-0.007266842,0.009148734
1718737783.098151,2.0,0.0,-0.007259167,0.00858297
1718737783.099295,2.0,0.0,-0.007251885,0.008180578
1718737783.100423,2.0,0.0,-0.007244792,0.007943616
1718737783.101558,2.0,0.0,-0.007237703,0.007867712
1718737783.102163,2.0,0.0,-0.007230456,0.00794294
1718737783.103303,2.0,0.0,-0.007222911,0.008154815
1718737783.104549,2.0,0.0,-0.007219363,0.006523782
1718737783.105184,2.0,0.0,-0.007209977,0.014493676
1718737783.106335,2.0,0.0,-0.007197846,0.013550936
1718737783.107478,2.0,0.0,-0.00718324,0.012988638
1718737783.10861,2.0,0.0,-0.007167033,0.013591441
1718737783.109189,2.0,0.0,-0.007151506,0.01713286
1718737783.110319,2.0,0.0,-0.007135587,0.012814743
1718737783.111452,2.0,0.0,-0.007111196,0.01700369
1718737783.112586,2.0,0.0,-0.007081345,0.021128584
1718737783.113168,2.0,0.0,-0.007049204,0.024220323
1718737783.114325,2.0,0.0,-0.007016991,0.026344046
1718737783.115453,2.0,0.0,-0.006986068,0.027644213
1718737783.116595,2.0,0.0,-0.006957178,0.028242994
1718737783.117192,2.0,0.0,-0.006930641,0.028241767
1718737783.118338,2.0,0.0,-0.006906516,0.027731568
1718737783.119517,2.0,0.0,-0.006884707,0.026799877
1718737783.121377,2.0,0.0,-0.00686504,0.025533376
1718737783.122051,2.0,0.0,-0.006847313,0.024017995
1718737783.12251,2.0,0.0,-0.006831326,0.022337508
1718737783.123787,2.0,0.0,-0.006816898,0.020571509
1718737783.124337,2.0,0.0,-0.006803868,0.018793305
1718737783.125574,2.0,0.0,-0.006792095,0.017068032
1718737783.126286,-2.0,0.0,-0.006792095,0.017068032
1718737783.126782,-2.0,0.0,-0.00678145,0.015451161
1718737783.127528,-2.0,0.0,-0.006771811,0.013987473
1718737783.128755,-2.0,0.0,-0.006763056,0.012710538
1718737783.129392,-2.0,0.0,-0.006755059,0.011642668
1718737783.130561,-2.0,0.0,-0.006794571,0.010911301
1718737783.131737,-2.0,0.0,-0.006721302,-0.005916056
1718737783.132352,-2.0,0.0,-0.006726246,-0.015746352
1718737783.133526,-2.0,0.0,-0.006735278,-0.000345116
1718737783.134732,-2.0,0.0,-0.006748324,0.004971326
1718737783.135341,-2.0,0.0,-0.006762107,0.007875952
1718737783.136535,-2.0,0.0,-0.006773856,0.009979463
1718737783.137792,-2.0,0.0,-0.006781794,0.011649018
1718737783.138356,-2.0,0.0,-0.006785051,0.013006775
1718737783.139538,-2.0,0.0,-0.006783486,0.014097756
1718737783.140751,-2.0,0.0,-0.006777488,0.014938761
1718737783.141369,-2.0,0.0,-0.006767777,0.015538478
1718737783.142559,-2.0,0.0,-0.006755235,0.015906413
1718737783.143743,-2.0,0.0,-0.006740771,0.016056501
1718737783.144361,-2.0,0.0,-0.006725227,0.016008068
1718737783.145526,-2.0,0.0,-0.00670932,0.015785441
1718737783.146714,-2.0,0.0,-0.006693609,0.015416889
1718737783.147332,-2.0,0.0,-0.006678495,0.014933297
1718737783.148511,-2.0,0.0,-0.006664229,0.014366759
1718737783.149699,-2.0,0.0,-0.006650932,0.013749233
1718737783.150311,-2.0,0.0,-0.00663862,0.01311133
1718737783.151527,-2.0,0.0,-0.00662723,0.012481284
1718737783.152661,-2.0,0.0,-0.006616648,0.011884123
1718737783.153267,-2.0,0.0,-0.006606724,0.011341056
1718737783.154456,-2.0,0.0,-0.006597295,0.010869082
1718737783.15564,-2.0,0.0,-0.006588199,0.010480792
1718737783.156536,-2.0,0.0,-0.006579278,0.010184378
1718737783.15774,-2.0,0.0,-0.006570392,0.009983796
1718737783.158358,-2.0,0.0,-0.006569677,0.009402489
1718737783.159527,-2.0,0.0,-0.006563639,0.009840496
1718737783.160751,-2.0,0.0,-0.006545411,0.009884145
1718737783.16137,-2.0,0.0,-0.006518779,0.010039568
1718737783.162552,-2.0,0.0,-0.006488718,0.010242229
1718737783.163697,-2.0,0.0,-0.006458955,0.010479074
1718737783.164288,-2.0,0.0,-0.006431762,0.010745727
1718737783.165433,-2.0,0.0,-0.006408229,0.011037622
1718737783.166596,-2.0,0.0,-0.006388607,0.01134877
1718737783.167931,-2.0,0.0,-0.006372603,0.011672124
1718737783.16855,-2.0,0.0,-0.006359616,0.012000205
1718737783.169826,-2.0,0.0,-0.006348907,0.012325702
1718737783.170431,-2.0,0.0,-0.006339729,0.012641949
1718737783.171592,-2.0,0.0,-0.006331399,0.012943289
1718737783.172765,-2.0,0.0,-0.006323354,0.013225306
1718737783.173342,-2.0,0.0,-0.006315169,0.013484953
1718737783.174495,-2.0,0.0,-0.006306557,0.013720576
1718737783.175639,-2.0,0.0,-0.006297357,0.013931853
1718737783.176234,-2.0,0.0,-0.006287516,0.014119664
1718737783.177377,-2.0,0.0,-0.006277058,0.014285912
1718737783.178561,-2.0,0.0,-0.006266063,0.014433302
1718737783.179669,-2.0,0.0,-0.00625464,0.014565117
1718737783.180257,-2.0,0.0,-0.006242907,0.014684979
1718737783.181401,-2.0,0.0,-0.006230981,0.014796629
1718737783.182545,-2.0,0.0,-0.006218961,0.014903724
1718737783.183691,-2.0,0.0,-0.006206928,0.015009659
1718737783.184277,-2.0,0.0,-0.006194941,0.015117429
1718737783.185426,-2.0,0.0,-0.006183036,0.015229521
1718737783.186581,-2.0,0.0,-0.006171231,0.015347838
1718737783.187756,-2.0,0.0,-0.006159527,0.015473662
1718737783.188432,-2.0,0.0,-0.006187519,0.016461918
1718737783.189594,-2.0,0.0,-0.006090031,0.019017363
1718737783.190683,-2.0,0.0,-0.006079417,0.01616542
1718737783.191279,-2.0,0.0,-0.006086419,0.015868664
1718737783.192416,-2.0,0.0,-0.006097713,0.015939454
1718737783.193557,-2.0,0.0,-0.006108325,0.016086227
1718737783.194703,-2.0,0.0,-0.006115749,0.016253569
1718737783.195286,-2.0,0.0,-0.006118825,0.016424732
1718737783.196431,-2.0,0.0,-0.006117286,0.016592289
1718737783.197575,-2.0,0.0,-0.006111454,0.016752018
1718737783.198763,-2.0,0.0,-0.006102002,0.016901164
1718737783.199402,-2.0,0.0,-0.006089761,0.017037835
1718737783.200583,-2.0,0.0,-0.006075578,0.017160733
1718737783.20181,-2.0,0.0,-0.006060224,0.017268991
1718737783.202332,-2.0,0.0,-0.006044334,0.017362059
1718737783.203494,-2.0,0.0,-0.006028387,0.017439615
1718737783.204639,-2.0,0.0,-0.00601271,0.017501502
1718737783.205804,-2.0,0.0,-0.005997488,0.017547677
1718737783.206359,-2.0,0.0,-0.005982796,0.017578188
1718737783.207505,-2.0,0.0,-0.00596862,0.01759316
1718737783.208671,-2.0,0.0,-0.005954893,0.017592787
1718737783.209499,-2.0,0.0,-0.005941511,0.017577333
1718737783.210643,-2.0,0.0,-0.00592836,0.017547133
1718737783.211784,-2.0,0.0,-0.005915328,0.017502593
1718737783.212371,-2.0,0.0,-0.005902316,0.017444189
1718737783.213515,-2.0,0.0,-0.005889242,0.017372455
1718737783.214707,-2.0,0.0,-0.005879924,0.018674703
1718737783.215357,-2.0,0.0,-0.005869096,0.011387654
1718737783.216573,-2.0,0.0,-0.005848022,0.012629628
1718737783.217739,-2.0,0.0,-0.005820499,0.013623028
1718737783.21836,-2.0,0.0,-0.005795468,0.011346371
1718737783.219507,-2.0,0.0,-0.005766729,0.017563111
1718737783.220632,-2.0,0.0,-0.005737535,0.014276278
1718737783.221793,-2.0,0.0,-0.005709631,0.01077788
1718737783.222368,-2.0,0.0,-0.005684961,0.00809809
1718737783.223515,-2.0,0.0,-0.005664657,0.006201904
1718737783.224666,-2.0,0.0,-0.005649006,0.004968528
1718737783.225308,-2.0,0.0,-0.005637668,0.004297476
1718737783.226278,2.0,0.0,-0.005637668,0.004297476
1718737783.22649,2.0,0.0,-0.005629905,0.004108699
1718737783.227627,2.0,0.0,-0.005624777,0.004332623
1718737783.228774,2.0,0.0,-0.005618001,0.008944875
1718737783.229368,2.0,0.0,-0.005608661,0.013831922
1718737783.230521,2.0,0.0,-0.00559599,0.018921301
1718737783.231675,2.0,0.0,-0.005579397,0.024148033
1718737783.232269,2.0,0.0,-0.005558472,0.02944947
1718737783.2334,2.0,0.0,-0.005532987,0.034767879
1718737783.234566,2.0,0.0,-0.005502871,0.04005187
1718737783.235708,2.0,0.0,-0.005468184,0.045257557
1718737783.236293,2.0,0.0,-0.00542909,0.050349366
1718737783.237547,2.0,0.0,-0.005385827,0.055300461
1718737783.238688,2.0,0.0,-0.005338678,0.060092788
1718737783.239343,2.0,0.0,-0.005287953,0.064716775
1718737783.240506,2.0,0.0,-0.005229256,0.070007894
1718737783.241663,2.0,0.0,-0.005159395,0.093621355
1718737783.242806,2.0,0.0,-0.005145946,0.104580867
1718737783.243437,2.0,0.0,-0.004986011,0.094572725
1718737783.244546,2.0,0.0,-0.004926122,0.090749376
1718737783.245695,2.0,0.0,-0.00488353,0.091452829
1718737783.246296,2.0,0.0,-0.004843102,0.093298058
1718737783.247436,2.0,0.0,-0.004799818,0.095672776
1718737783.24862,2.0,0.0,-0.004751467,0.098401022
1718737783.249751,2.0,0.0,-0.00469723,0.101416265
1718737783.250508,2.0,0.0,-0.00463715,0.104688747
1718737783.251727,2.0,0.0,-0.004571813,0.10820045
1718737783.252389,2.0,0.0,-0.004502117,0.111934812
1718737783.253523,2.0,0.0,-0.004429096,0.115872598
1718737783.254705,2.0,0.0,-0.00435381,0.119990679
1718737783.255321,2.0,0.0,-0.004277261,0.124262209
1718737783.256482,2.0,0.0,-0.004200359,0.128657502
1718737783.257665,2.0,0.0,-0.004123911,0.1331452
1718737783.258837,2.0,0.0,-0.004048625,0.13769354
1718737783.259457,2.0,0.0,-0.003975137,0.14227157
1718737783.260639,2.0,0.0,-0.00390403,0.146850254
1718737783.261832,2.0,0.0,-0.003835868,0.1514034
1718737783.262445,2.0,0.0,-0.003771219,0.155908392
1718737783.263637,2.0,0.0,-0.003710672,0.160346704
1718737783.264514,2.0,0.0,-0.00365486,0.164704199
1718737783.265703,2.0,0.0,-0.003604457,0.168971224
1718737783.266338,2.0,0.0,-0.003560188,0.173142512
1718737783.2675,2.0,0.0,-0.003522811,0.177216926
1718737783.268671,2.0,0.0,-0.003493111,0.181197059
1718737783.269883,2.0,0.0,-0.003471876,0.185088735
1718737783.270517,2.0,0.0,-0.003459877,0.188900434
1718737783.271694,2.0,0.0,0.003457836,0.192642676
1718737783.272847,2.0,0.0,0.003466412,0.196327394
1718737783.273445,2.0,0.0,0.003486169,0.19996732
1718737783.274585,2.0,0.0,0.003517563,0.203575412
1718737783.275749,2.0,0.0,0.00356093,0.207164334
1718737783.276886,2.0,0.0,0.003624183,0.212812828
1718737783.277533,2.0,0.0,0.003686284,0.209596161
1718737783.278635,2.0,0.0,0.003747727,0.214396301
1718737783.279779,2.0,0.0,0.003817475,0.21687435
1718737783.280927,2.0,0.0,0.003902042,0.226845834
1718737783.28153,2.0,0.0,0.003993139,0.228391386
1718737783.282669,2.0,0.0,0.004093392,0.229404145
1718737783.283813,2.0,0.0,0.004206651,0.231058563
1718737783.284404,2.0,0.0,0.004335043,0.233363281
1718737783.285585,2.0,0.0,0.004479061,0.236220171
1718737783.286726,2.0,0.0,0.004638115,0.239544737
1718737783.28789,2.0,0.0,0.004811037,0.243270483
1718737783.288509,2.0,0.0,0.004996452,0.247340837
1718737783.289634,2.0,0.0,0.005193008,0.251703049
1718737783.290789,2.0,0.0,0.005399516,0.256305192
1718737783.291918,2.0,0.0,0.005614997,0.261095408
1718737783.292508,2.0,0.0,0.005838694,0.266022423
1718737783.293667,2.0,0.0,0.006070051,0.271036667
1718737783.294819,2.0,0.0,0.006308668,0.276091583
1718737783.295413,2.0,0.0,0.006554267,0.281144872
1718737783.296558,2.0,0.0,0.006806645,0.286159535
1718737783.297684,2.0,0.0,0.007065647,0.291104647
1718737783.298837,2.0,0.0,0.007328621,0.296220749
1718737783.299488,2.0,0.0,0.007619911,0.31994635
1718737783.300684,2.0,0.0,0.007969436,0.330099513
1718737783.301797,2.0,0.0,0.008201959,0.31529186
1718737783.302927,2.0,0.0,0.008500282,0.318022115
1718737783.303524,2.0,0.0,0.008811182,0.320020557
1718737783.30467,2.0,0.0,0.00912608,0.322387299
1718737783.305831,2.0,0.0,0.009442717,0.325103397
1718737783.306436,2.0,0.0,0.009760476,0.328094171
1718737783.307552,2.0,0.0,0.010079465,0.331315656
1718737783.30871,2.0,0.0,0.010400172,0.334744418
1718737783.309978,2.0,0.0,0.010723259,0.338365502
1718737783.310508,2.0,0.0,0.011049426,0.34216551
1718737783.311651,2.0,0.0,0.011379322,0.346129326
1718737783.312799,2.0,0.0,0.011713494,0.350238952
1718737783.313493,2.0,0.0,0.012052369,0.354473521
1718737783.314671,2.0,0.0,0.012396245,0.358809916
1718737783.315846,2.0,0.0,0.012745305,0.363223677
1718737783.316464,2.0,0.0,0.013099636,0.367689992
1718737783.317632,2.0,0.0,0.013459247,0.372184663
1718737783.318808,2.0,0.0,0.013824089,0.376684964
1718737783.319421,2.0,0.0,0.014194075,0.381170356
1718737783.320618,2.0,0.0,0.014569091,0.385623049
1718737783.321818,2.0,0.0,0.014949012,0.390028379
1718737783.322473,2.0,0.0,0.015333707,0.394375027
1718737783.323647,2.0,0.0,0.015723052,0.39865508
1718737783.324799,2.0,0.0,0.016116925,0.40286395
1718737783.325388,2.0,0.0,0.016515219,0.407000175
1718737783.326275,-2.0,0.0,0.016515219,0.407000175
1718737783.326557,-2.0,0.0,0.016917833,0.411065121
1718737783.327801,-2.0,0.0,0.017324683,0.415062609
1718737783.328927,-2.0,0.0,0.017727776,0.410922343
1718737783.329507,-2.0,0.0,0.018127037,0.406739684
1718737783.330653,-2.0,0.0,0.018526487,0.404041528
1718737783.3318,-2.0,0.0,0.018918596,0.398125742
1718737783.332398,-2.0,0.0,0.019302961,0.394059671
1718737783.333537,-2.0,0.0,0.019680891,0.389783372
1718737783.33468,-2.0,0.0,0.02005417,0.385551327
1718737783.335822,-2.0,0.0,0.020424056,0.381393531
1718737783.336408,-2.0,0.0,0.020791247,0.377299716
1718737783.337631,-2.0,0.0,0.021156023,0.373254461
1718737783.338734,-2.0,0.0,0.021518385,0.36924391
1718737783.339868,-2.0,0.0,0.021878174,0.365256849
1718737783.340434,-2.0,0.0,0.02223515,0.361284554
1718737783.341573,-2.0,0.0,0.022589048,0.357320398
1718737783.34272,-2.0,0.0,0.022939616,0.353359408
1718737783.343869,-2.0,0.0,0.023286632,0.349397866
1718737783.344523,-2.0,0.0,0.023629916,0.345432947
1718737783.345686,-2.0,0.0,0.023969335,0.341462431
1718737783.346843,-2.0,0.0,0.024304796,0.33748448
1718737783.347476,-2.0,0.0,0.024636243,0.333497484
1718737783.348624,-2.0,0.0,0.024963646,0.329499975
1718737783.349766,-2.0,0.0,0.025286996,0.325490601
1718737783.350927,-2.0,0.0,0.025606296,0.321468134
1718737783.35158,-2.0,0.0,0.025921555,0.317431511
1718737783.352701,-2.0,0.0,0.026232782,0.31337989
1718737783.353857,-2.0,0.0,0.026539986,0.309312696
1718737783.354463,-2.0,0.0,0.026843168,0.305229673
1718737783.355632,-2.0,0.0,0.027142328,0.301130909
1718737783.356775,-2.0,0.0,0.027437459,0.297016845
1718737783.357861,-2.0,0.0,0.027728552,0.292888263
1718737783.358474,-2.0,0.0,0.028015592,0.28874626
1718737783.359665,-2.0,0.0,0.028305245,0.281043779
1718737783.360866,-2.0,0.0,0.028529617,0.244881028
1718737783.361463,-2.0,0.0,0.028776063,0.249486046
1718737783.362665,-2.0,0.0,0.029018858,0.243559109
1718737783.363817,-2.0,0.0,0.029277084,0.257262859
1718737783.364392,-2.0,0.0,0.029539611,0.260271845
1718737783.365649,-2.0,0.0,0.029801887,0.259610994
1718737783.366732,-2.0,0.0,0.030062018,0.257691239
1718737783.367878,-2.0,0.0,0.030318918,0.255068365
1718737783.368461,-2.0,0.0,0.030571923,0.25195461
1718737783.369632,-2.0,0.0,0.030820632,0.24845893
1718737783.370848,-2.0,0.0,0.031064813,0.244649686
1718737783.372022,-2.0,0.0,0.031304344,0.240578439
1718737783.372627,-2.0,0.0,0.031539168,0.236290154
1718737783.373802,-2.0,0.0,0.031769267,0.231827426
1718737783.375035,-2.0,0.0,0.031994645,0.22723188
1718737783.375645,-2.0,0.0,0.032215318,0.222544216
1718737783.376824,-2.0,0.0,0.032431309,0.217803634
1718737783.377453,-2.0,0.0,0.032642652,0.213047004
1718737783.378644,-2.0,0.0,0.032849387,0.208308003
1718737783.379788,-2.0,0.0,0.033051567,0.203616317
1718737783.38093,-2.0,0.0,0.033249256,0.198997
1718737783.381517,-2.0,0.0,0.033442529,0.19447001
1718737783.382662,-2.0,0.0,0.033631472,0.190049961
1718737783.383804,-2.0,0.0,0.033816179,0.185746079
1718737783.384423,-2.0,0.0,0.03399705,0.181188336
1718737783.38555,-2.0,0.0,0.034178587,0.181548605
1718737783.386729,-2.0,0.0,0.034355769,0.177971683
1718737783.387892,-2.0,0.0,0.034531731,0.176591204
1718737783.388465,-2.0,0.0,0.034695335,0.16562166
1718737783.389669,-2.0,0.0,0.034854883,0.162928551
1718737783.39077,-2.0,0.0,0.035012693,0.161717571
1718737783.391363,-2.0,0.0,0.035169077,0.160186401
1718737783.392502,-2.0,0.0,0.035323937,0.158179952
1718737783.393648,-2.0,0.0,0.035476996,0.155723073
1718737783.394874,-2.0,0.0,0.035627869,0.152848876
1718737783.395956,-2.0,0.0,0.035776111,0.149585249
1718737783.396542,-2.0,0.0,0.035921255,0.145959772
1718737783.397691,-2.0,0.0,0.036062847,0.142004
1718737783.398837,-2.0,0.0,0.036200469,0.137755117
1718737783.399421,-2.0,0.0,0.03633376,0.133255609
1718737783.400564,-2.0,0.0,0.036462425,0.128551798
1718737783.401706,-2.0,0.0,0.036586241,0.123691884
1718737783.40285,-2.0,0.0,0.036705053,0.118723894
1718737783.403436,-2.0,0.0,0.036818774,0.113693793
1718737783.404588,-2.0,0.0,0.036927373,0.108643885
1718737783.405763,-2.0,0.0,0.037030872,0.103611562
1718737783.406915,-2.0,0.0,0.03712933,0.098628432
1718737783.407562,-2.0,0.0,0.037222836,0.093719788
1718737783.408748,-2.0,0.0,0.0373115,0.088904416
1718737783.409913,-2.0,0.0,0.037395442,0.084194687
1718737783.410483,-2.0,0.0,0.037474788,0.079596885
1718737783.411609,-2.0,0.0,0.03754966,0.075111739
1718737783.412755,-2.0,0.0,0.037620175,0.070735097
1718737783.413866,-2.0,0.0,0.037686436,0.066458706
1718737783.41445,-2.0,0.0,0.037748535,0.062271054
1718737783.41561,-2.0,0.0,0.037806546,0.058158233
1718737783.416773,-2.0,0.0,0.037860526,0.054104794
1718737783.417616,-2.0,0.0,0.037910518,0.050094563
1718737783.418766,-2.0,0.0,0.037956544,0.046111383
1718737783.419963,-2.0,0.0,0.038001259,0.037588013
1718737783.420527,-2.0,0.0,0.037983702,-0.003168431
1718737783.42168,-2.0,0.0,0.037989643,0.007268988
1718737783.422919,-2.0,0.0,0.037993795,0.003298506
1718737783.423541,-2.0,0.0,0.037991583,-0.002999757
1718737783.424744,-2.0,0.0,0.038004315,0.011141914
1718737783.425881,-2.0,0.0,0.038021577,0.014901632
1718737783.426376,-2.0,0.0,0.038021577,0.014901632
1718737783.426459,-2.0,0.0,0.038038866,0.014698873
1718737783.427585,-2.0,0.0,0.038054337,0.013063454
1718737783.428751,-2.0,0.0,0.038066771,0.010476782
1718737783.429923,-2.0,0.0,0.038075429,0.007267429
1718737783.43049,-2.0,0.0,0.038079802,0.003559224
1718737783.43165,-2.0,0.0,0.038079538,-0.000561219
1718737783.432789,-2.0,0.0,0.038074392,-0.005023496
1718737783.433396,-2.0,0.0,0.038064203,-0.009762771
1718737783.434542,-2.0,0.0,0.038048866,-0.014715964
1718737783.435684,-2.0,0.0,0.038028329,-0.019820924
1718737783.436841,-2.0,0.0,0.038002578,-0.025017004
1718737783.437426,-2.0,0.0,0.037971637,-0.030246233
1718737783.438594,-2.0,0.0,0.037935562,-0.035454677
1718737783.439812,-2.0,0.0,0.037894444,-0.040593758
1718737783.440406,-2.0,0.0,0.037848398,-0.045621384
1718737783.441559,-2.0,0.0,0.037797567,-0.050502814
1718737783.442707,-2.0,0.0,0.037742113,-0.055211221
1718737783.443856,-2.0,0.0,0.037682214,-0.059727924
1718737783.444499,-2.0,0.0,0.037618056,-0.064042302
1718737783.445599,-2.0,0.0,0.037549832,-0.06815142
1718737783.446743,-2.0,0.0,0.03747773,-0.072059381
1718737783.447887,-2.0,0.0,0.037401931,-0.075776478
1718737783.448481,-2.0,0.0,0.037322603,-0.079318182
1718737783.44962,-2.0,0.0,0.0372399,-0.082704022
1718737783.450761,-2.0,0.0,0.03715395,-0.085956427
1718737783.451905,-2.0,0.0,0.037064865,-0.089099569
1718737783.452583,-2.0,0.0,0.03697273,-0.092158256
1718737783.453755,-2.0,0.0,0.036877608,-0.095156924
1718737783.454865,-2.0,0.0,0.036783625,-0.094736858
1718737783.455468,-2.0,0.0,0.036678569,-0.104821514
1718737783.456598,-2.0,0.0,0.036569178,-0.107878174
1718737783.457737,-2.0,0.0,0.036456301,-0.11095144
1718737783.458883,-2.0,0.0,0.036343117,-0.11113285
1718737783.459507,-2.0,0.0,0.036225693,-0.11479654
1718737783.460642,-2.0,0.0,0.036102613,-0.120226701
1718737783.46179,-2.0,0.0,0.035974788,-0.125205932
1718737783.463075,-2.0,0.0,0.03584309,-0.129614438
1718737783.463731,-2.0,0.0,0.03570812,-0.133558282
1718737783.464896,-2.0,0.0,0.035570265,-0.137137585
1718737783.465451,-2.0,0.0,0.035429759,-0.140426691
1718737783.4666,-2.0,0.0,0.035286741,-0.143481346
1718737783.467772,-2.0,0.0,0.035141288,-0.146346492
1718737783.468886,-2.0,0.0,0.034993437,-0.149061373
1718737783.469475,-2.0,0.0,0.0348432,-0.151662321
1718737783.470674,-2.0,0.0,0.034690573,-0.154183984
1718737783.471846,-2.0,0.0,0.034535539,-0.156659623
1718737783.473093,-2.0,0.0,0.034384517,-0.165529191
1718737783.473732,-2.0,0.0,0.034168503,-0.202216749
1718737783.474907,-2.0,0.0,0.033976196,-0.19230663
1718737783.475532,-2.0,0.0,0.033783327,-0.195275055
1718737783.476712,-2.0,0.0,0.033587287,-0.198973766
1718737783.477896,-2.0,0.0,0.033388043,-0.202147745
1718737783.478523,-2.0,0.0,0.033185897,-0.204779582
1718737783.479662,-2.0,0.0,0.032981168,-0.206995186
1718737783.480808,-2.0,0.0,0.032774123,-0.208926309
1718737783.481951,-2.0,0.0,0.032564964,-0.21069203
1718737783.48254,-2.0,0.0,0.032353815,-0.212396828
1718737783.483673,-2.0,0.0,0.032140726,-0.214130606
1718737783.484815,-2.0,0.0,0.031925673,-0.21596857
1718737783.485396,-2.0,0.0,0.031708562,-0.21797094
1718737783.486558,-2.0,0.0,0.031489246,-0.220182787
1718737783.487702,-2.0,0.0,0.031267532,-0.222634217
1718737783.48886,-2.0,0.0,0.031043199,-0.225340983
1718737783.490073,-2.0,0.0,0.030814387,-0.229281338
1718737783.490729,-2.0,0.0,0.030603135,-0.212936303
1718737783.491903,-2.0,0.0,0.030397779,-0.20854795
1718737783.492521,-2.0,0.0,0.030193049,-0.208895046
1718737783.49367,-2.0,0.0,0.029986427,-0.211273534
1718737783.494887,-2.0,0.0,0.029776282,-0.214925206
1718737783.495546,-2.0,0.0,0.029561493,-0.219463704
1718737783.496725,-2.0,0.0,0.029341313,-0.224624929
1718737783.497889,-2.0,0.0,0.029115286,-0.23020258
1718737783.498509,-2.0,0.0,0.02888319,-0.236024734
1718737783.499688,-2.0,0.0,0.028644987,-0.241944726
1718737783.500875,-2.0,0.0,0.028400783,-0.24783796
1718737783.502061,-2.0,0.0,0.028150794,-0.253601115
1718737783.502675,-2.0,0.0,0.02789531,-0.259152084
1718737783.503861,-2.0,0.0,0.027634673,-0.264429866
1718737783.505056,-2.0,0.0,0.027369246,-0.26939409
1718737783.505657,-2.0,0.0,0.027099401,-0.274024032
1718737783.506853,-2.0,0.0,0.026825492,-0.278317134
1718737783.508037,-2.0,0.0,0.026551845,-0.279434917
1718737783.508653,-2.0,0.0,0.026265623,-0.290710143
1718737783.509908,-2.0,0.0,0.025974336,-0.293879231
1718737783.511021,-2.0,0.0,0.025679518,-0.296267049
1718737783.511628,-2.0,0.0,0.02538111,-0.299421572
1718737783.512792,-2.0,0.0,0.025078869,-0.303333149
1718737783.514022,-2.0,0.0,0.024772517,-0.307850829
1718737783.515246,-2.0,0.0,0.024461755,-0.31284167
1718737783.515832,-2.0,0.0,0.024146278,-0.318198106
1718737783.517017,-2.0,0.0,0.023825796,-0.323829336
1718737783.517659,-2.0,0.0,0.023500052,-0.329654777
1718737783.518847,-2.0,0.0,0.023168838,-0.335600919
1718737783.520002,-2.0,0.0,0.022832009,-0.341600499
1718737783.520624,-2.0,0.0,0.022489483,-0.347592895
1718737783.521823,-2.0,0.0,0.022141247,-0.353524964
1718737783.522995,-2.0,0.0,0.02178735,-0.359351885
1718737783.52365,-2.0,0.0,0.021427893,-0.365037762
1718737783.524813,-2.0,0.0,0.021063028,-0.370555887
1718737783.526009,-2.0,0.0,0.020692934,-0.375888635
1718737783.526262,2.0,0.0,0.020692934,-0.375888635
1718737783.526659,2.0,0.0,0.020317817,-0.381027015
1718737783.527872,2.0,0.0,0.019946112,-0.37767931
1718737783.529048,2.0,0.0,0.019578023,-0.374147289
1718737783.529671,2.0,0.0,0.019213727,-0.370454317
1718737783.530854,2.0,0.0,0.018853386,-0.366617405
1718737783.532021,2.0,0.0,0.01849714,-0.362658685
1718737783.532599,2.0,0.0,0.018145102,-0.358602187
1718737783.533733,2.0,0.0,0.017797358,-0.354472703
1718737783.53487,2.0,0.0,0.017453968,-0.350294724
1718737783.535455,2.0,0.0,0.017114966,-0.346091498
1718737783.53659,2.0,0.0,0.016780363,-0.341884244
1718737783.537726,2.0,0.0,0.016450149,-0.337691537
1718737783.538875,2.0,0.0,0.0161243,-0.333528855
1718737783.539471,2.0,0.0,0.015802779,-0.329408318
1718737783.540595,2.0,0.0,0.01548554,-0.325338566
1718737783.541735,2.0,0.0,0.015172535,-0.321324813
1718737783.542877,2.0,0.0,0.014863713,-0.317369006
1718737783.544014,2.0,0.0,0.014559026,-0.313470118
1718737783.544597,2.0,0.0,0.01425843,-0.30962451
1718737783.545738,2.0,0.0,0.01396144,-0.30747891
1718737783.546898,2.0,0.0,0.013674239,-0.298406941
1718737783.54813,2.0,0.0,0.013388801,-0.295217356
1718737783.548717,2.0,0.0,0.01311899,-0.293700892
1718737783.549852,2.0,0.0,0.012771296,-0.314564933
1718737783.550999,2.0,0.0,0.012467187,-0.309663136
1718737783.551624,2.0,0.0,0.012174162,-0.30632299
1718737783.552761,2.0,0.0,0.011888648,-0.301665706
1718737783.55386,2.0,0.0,0.011610366,-0.295807296
1718737783.554998,2.0,0.0,0.011339413,-0.289078074
1718737783.555602,2.0,0.0,0.011075874,-0.281769762
1718737783.556732,2.0,0.0,0.010819765,-0.274129341
1718737783.557873,2.0,0.0,0.01057103,-0.266368663
1718737783.559025,2.0,0.0,0.010329538,-0.258669632
1718737783.5597,2.0,0.0,0.010095089,-0.251185797
1718737783.560884,2.0,0.0,0.009867421,-0.244042328
1718737783.562138,2.0,0.0,0.00964621,-0.237335719
1718737783.562759,2.0,0.0,0.009431088,-0.231133887
1718737783.563944,2.0,0.0,0.00922165,-0.225477009
1718737783.565314,2.0,0.0,0.009017473,-0.22037916
1718737783.565968,2.0,0.0,0.008818129,-0.215830707
1718737783.566579,2.0,0.0,0.008623207,-0.211801327
1718737783.567715,2.0,0.0,0.008432326,-0.208243493
1718737783.568962,2.0,0.0,0.008245149,-0.205096236
1718737783.570091,2.0,0.0,0.008061395,-0.202289027
1718737783.570719,2.0,0.0,0.007880846,-0.199745595
1718737783.571908,2.0,0.0,0.007703352,-0.197387561
1718737783.573133,2.0,0.0,0.007528831,-0.195137743
1718737783.573753,2.0,0.0,0.007357268,-0.192923057
1718737783.574948,2.0,0.0,0.007185737,-0.190220473
1718737783.575563,2.0,0.0,0.007040512,-0.16753233
1718737783.576745,2.0,0.0,0.006911821,-0.157464887
1718737783.577925,2.0,0.0,0.006799611,-0.149546954
1718737783.578504,2.0,0.0,0.006681888,-0.152428176
1718737783.579608,2.0,0.0,0.006561039,-0.147980813
1718737783.580733,2.0,0.0,0.006438146,-0.144108146
1718737783.581917,2.0,0.0,0.006314001,-0.141692978
1718737783.582481,2.0,0.0,0.006189447,-0.140434157
1718737783.583628,2.0,0.0,0.006065265,-0.139969177
1718737783.584782,2.0,0.0,0.005942111,-0.13999197
1718737783.585937,2.0,0.0,0.005820507,-0.140251773
1718737783.5865,2.0,0.0,0.00570086,-0.140541921
1718737783.587643,2.0,0.0,0.00558349,-0.140692163
1718737783.588851,2.0,0.0,0.005468659,-0.140564606
1718737783.589999,2.0,0.0,0.005356597,-0.140051727
1718737783.5906,2.0,0.0,0.005247514,-0.139075135
1718737783.591759,2.0,0.0,0.005141613,-0.137584326
1718737783.59293,2.0,0.0,0.00504024,-0.137824451
1718737783.593503,2.0,0.0,0.004948473,-0.129154827
1718737783.594681,2.0,0.0,0.004855213,-0.127019318
1718737783.595825,2.0,0.0,0.004761138,-0.124452486
1718737783.596951,2.0,0.0,0.00466971,-0.120423314
1718737783.597524,2.0,0.0,0.004583829,-0.11514446
1718737783.598724,2.0,0.0,0.004505398,-0.108924596
1718737783.599844,2.0,0.0,0.004435423,-0.102041854
1718737783.600973,2.0,0.0,0.004374185,-0.094738486
1718737783.601536,2.0,0.0,0.004321432,-0.087227227
1718737783.602657,2.0,0.0,0.004276543,-0.079695317
1718737783.603785,2.0,0.0,0.004238677,-0.072305606
1718737783.604915,2.0,0.0,0.004206891,-0.065196072
1718737783.605538,2.0,0.0,0.004180233,-0.05847886
1718737783.606711,2.0,0.0,0.004157804,-0.05223961
1718737783.607811,2.0,0.0,0.004138803,-0.046537422
1718737783.608949,2.0,0.0,0.004122541,-0.041405628
1718737783.609535,2.0,0.0,0.00410845,-0.036853371
1718737783.610682,2.0,0.0,0.004096077,-0.032867891
1718737783.611836,2.0,0.0,0.004085069,-0.029417396
1718737783.613019,2.0,0.0,0.004153042,-0.027377689
1718737783.613577,2.0,0.0,0.003990173,-0.045543581
1718737783.614768,2.0,0.0,0.003953641,-0.049405514
1718737783.615912,2.0,0.0,0.003938852,-0.050573723
1718737783.617041,2.0,0.0,0.003928752,-0.050292362
1718737783.617632,2.0,0.0,0.003918522,-0.049034838
1718737783.618773,2.0,0.0,0.003906219,-0.047045555
1718737783.619918,2.0,0.0,0.003891125,-0.044475428
1718737783.620622,2.0,0.0,0.003873228,-0.041433936
1718737783.621837,2.0,0.0,0.003852941,-0.038011978
1718737783.622886,2.0,0.0,0.003825048,-0.033588317
1718737783.624045,2.0,0.0,0.00381482,-0.009775268
1718737783.62465,2.0,0.0,0.00381944,0.00164249
1718737783.625828,2.0,0.0,0.003832985,0.009145612
1718737783.626284,2.0,0.0,0.003832985,0.009145612
1718737783.626999,2.0,0.0,0.003850933,0.014871722
1718737783.627615,2.0,0.0,0.003870156,0.019433073
1718737783.628734,2.0,0.0,0.003888726,0.023122355
1718737783.629857,2.0,0.0,0.003905647,0.02612683
1718737783.631002,2.0,0.0,0.003920608,0.028591365
1718737783.631597,2.0,0.0,0.003933758,0.030642628
1718737783.632769,2.0,0.0,0.00394552,0.032398189
1718737783.633931,2.0,0.0,0.003956462,0.033968877
1718737783.635064,2.0,0.0,0.003967188,0.035458175
1718737783.635656,2.0,0.0,0.003978279,0.036960486
1718737783.636807,2.0,0.0,0.003990255,0.038559209
1718737783.63797,2.0,0.0,0.004003558,0.040325084
1718737783.638575,2.0,0.0,0.004018555,0.042315029
1718737783.639808,2.0,0.0,0.004035542,0.044571546
1718737783.641,2.0,0.0,0.004054765,0.047122707
1718737783.641633,2.0,0.0,0.00407643,0.049982681
1718737783.642834,2.0,0.0,0.004100718,0.053152731
1718737783.64403,2.0,0.0,0.004127801,0.056622591
1718737783.644664,2.0,0.0,0.004157846,0.06037215
1718737783.645872,2.0,0.0,0.004191023,0.064373323
1718737783.64716,2.0,0.0,0.004227507,0.068592027
1718737783.64775,2.0,0.0,0.00427,0.070801551
1718737783.648938,2.0,0.0,0.004321971,0.08190452
1718737783.650078,2.0,0.0,0.004371747,0.085540131
1718737783.650673,2.0,0.0,0.004420434,0.089208758
1718737783.651818,2.0,0.0,0.004472038,0.093980278
1718737783.652977,2.0,0.0,0.004529767,0.099667971
1718737783.653583,2.0,0.0,0.004595646,0.105997122
1718737783.654746,2.0,0.0,0.004670708,0.112732656
1718737783.655892,2.0,0.0,0.004755258,0.119682025
1718737783.657187,2.0,0.0,0.004849116,0.126685814
1718737783.65785,2.0,0.0,0.004951804,0.1336109
1718737783.658995,2.0,0.0,0.005062692,0.14034688
1718737783.659581,2.0,0.0,0.005181094,0.146804516
1718737783.660712,2.0,0.0,0.005306338,0.152915039
1718737783.66195,2.0,0.0,0.005437802,0.158629604
1718737783.663142,2.0,0.0,0.005574932,0.163918487
1718737783.663776,2.0,0.0,0.005717244,0.168769867
1718737783.664963,2.0,0.0,0.005864327,0.173188175
1718737783.666186,2.0,0.0,0.006015826,0.177192038
1718737783.66679,2.0,0.0,0.006171441,0.180811942
1718737783.667957,2.0,0.0,0.006330917,0.184087701
1718737783.669106,2.0,0.0,0.006494034,0.187065854
1718737783.669699,2.0,0.0,0.00666061,0.189797106
1718737783.670905,2.0,0.0,0.006830491,0.192333896
1718737783.672091,2.0,0.0,0.007003555,0.194728181
1718737783.672636,2.0,0.0,0.007179706,0.197029495
1718737783.673789,2.0,0.0,0.007388085,0.19838285
1718737783.674934,2.0,0.0,0.007474697,0.178533067
1718737783.676053,2.0,0.0,0.007630664,0.177486349
1718737783.676645,2.0,0.0,0.007798185,0.177326458
1718737783.677817,2.0,0.0,0.007969111,0.178542131
1718737783.678936,2.0,0.0,0.008139412,0.180959508
1718737783.68008,2.0,0.0,0.008332719,0.202723816
1718737783.680665,2.0,0.0,0.008539288,0.213404936
1718737783.681812,2.0,0.0,0.008753772,0.22071326
1718737783.68295,2.0,0.0,0.008973267,0.226663299
1718737783.683566,2.0,0.0,0.009196066,0.231760031
1718737783.684759,2.0,0.0,0.00942124,0.236204721
1718737783.685942,2.0,0.0,0.009648361,0.2401032
1718737783.687011,2.0,0.0,0.009877309,0.243526283
1718737783.688144,2.0,0.0,0.010108131,0.24653364
1718737783.688729,2.0,0.0,0.010340939,0.24918357
1718737783.689901,2.0,0.0,0.01057586,0.251536296
1718737783.691009,2.0,0.0,0.010812998,0.253654175
1718737783.691602,2.0,0.0,0.011052432,0.255600482
1718737783.692739,2.0,0.0,0.011294212,0.257437645
1718737783.693884,2.0,0.0,0.011538372,0.259225376
1718737783.694985,2.0,0.0,0.011784939,0.261018943
1718737783.695559,2.0,0.0,0.012033948,0.262867726
1718737783.696712,2.0,0.0,0.012285445,0.264814105
1718737783.6978,2.0,0.0,0.0125395,0.266892725
1718737783.698888,2.0,0.0,0.012796201,0.269130117
1718737783.700008,2.0,0.0,0.013055661,0.271544675
1718737783.700607,2.0,0.0,0.013318885,0.273077427
1718737783.701713,2.0,0.0,0.01359198,0.282149692
1718737783.702852,2.0,0.0,0.013865848,0.284725546
1718737783.703972,2.0,0.0,0.014140505,0.287000354
1718737783.704565,2.0,0.0,0.014418195,0.290454001
1718737783.705723,2.0,0.0,0.014700819,0.294982284
1718737783.706824,2.0,0.0,0.014989678,0.300328562
1718737783.707966,2.0,0.0,0.015285555,0.30625812
1718737783.709111,2.0,0.0,0.01558884,0.312571293
1718737783.709695,2.0,0.0,0.015899631,0.319097081
1718737783.710876,2.0,0.0,0.016217818,0.325687645
1718737783.711994,2.0,0.0,0.016543146,0.332215652
1718737783.713235,2.0,0.0,0.016875262,0.338573539
1718737783.71383,2.0,0.0,0.017213752,0.344673603
1718737783.714967,2.0,0.0,0.017558169,0.350448191
1718737783.716084,2.0,0.0,0.017912612,0.359143783
1718737783.716668,2.0,0.0,0.018263176,0.357444354
1718737783.717828,2.0,0.0,0.018616431,0.362761534
1718737783.718979,2.0,0.0,0.018973471,0.367881222
1718737783.720184,2.0,0.0,0.019333993,0.371644301
1718737783.720786,2.0,0.0,0.019697481,0.374208244
1718737783.721929,2.0,0.0,0.02006337,0.375838065
1718737783.723063,2.0,0.0,0.020431117,0.376774736
1718737783.723674,2.0,0.0,0.020800239,0.377229864
1718737783.724824,2.0,0.0,0.021170358,0.37739201
1718737783.725976,2.0,0.0,0.021541218,0.377430483
1718737783.726289,2.0,0.0,0.021541218,0.377430483
1718737783.727139,2.0,0.0,0.021912707,0.377496171
1718737783.727727,2.0,0.0,0.022284719,0.377618048
1718737783.728897,2.0,0.0,0.022657406,0.378007558
1718737783.730041,2.0,0.0,0.02303103,0.378751071
1718737783.730715,2.0,0.0,0.023405944,0.379916309
1718737783.731853,2.0,0.0,0.02378257,0.381548673
1718737783.733003,2.0,0.0,0.024161375,0.383672559
1718737783.734144,2.0,0.0,0.02454138,0.385668597
1718737783.734733,2.0,0.0,0.024945141,0.408002109
1718737783.735878,2.0,0.0,0.025361677,0.419066508
1718737783.73704,2.0,0.0,0.025786327,0.426219001
1718737783.737655,2.0,0.0,0.026217017,0.431922334
1718737783.738818,2.0,0.0,0.026652518,0.436816089
1718737783.739991,2.0,0.0,0.027092064,0.441179786
1718737783.741148,2.0,0.0,0.027535189,0.445174251
1718737783.741736,2.0,0.0,0.027981635,0.448908084
1718737783.742908,2.0,0.0,0.028431289,0.452463734
1718737783.744122,2.0,0.0,0.028884133,0.455908859
1718737783.744735,2.0,0.0,0.029340217,0.459301159
1718737783.745883,2.0,0.0,0.029799634,0.46269022
1718737783.747008,2.0,0.0,0.030262503,0.466118048
1718737783.748158,2.0,0.0,0.030728957,0.469619119
1718737783.748754,2.0,0.0,0.031199137,0.473220321
1718737783.74992,2.0,0.0,0.031673185,0.476940999
1718737783.751051,2.0,0.0,0.03215124,0.48079315
1718737783.751647,2.0,0.0,0.032633435,0.484781821
1718737783.752972,2.0,0.0,0.033119894,0.488905672
1718737783.753999,2.0,0.0,0.03361073,0.493157697
1718737783.755126,2.0,0.0,0.034106041,0.497526068
1718737783.755714,2.0,0.0,0.034605911,0.50199506
1718737783.75686,2.0,0.0,0.035110407,0.506546023
1718737783.75801,2.0,0.0,0.035619576,0.511158361
1718737783.759246,2.0,0.0,0.036133446,0.515810482
1718737783.759861,2.0,0.0,0.036652027,0.520480698
1718737783.761,2.0,0.0,0.03717531,0.525148025
1718737783.762184,2.0,0.0,0.037703268,0.529792885
1718737783.762748,2.0,0.0,0.038235858,0.534397679
1718737783.763938,2.0,0.0,0.038773023,0.53894723
1718737783.765085,2.0,0.0,0.039314629,0.54294666
1718737783.765696,2.0,0.0,0.039863928,0.55044839
1718737783.766821,2.0,0.0,0.040420267,0.550433389
1718737783.767954,2.0,0.0,0.040917739,0.514243914
1718737783.769168,2.0,0.0,0.041449005,0.534826613
1718737783.76998,2.0,0.0,0.041987841,0.540097431
1718737783.771105,2.0,0.0,0.04253211,0.544866769
1718737783.771702,2.0,0.0,0.043082294,0.55056158
1718737783.772844,2.0,0.0,0.043639032,0.557094476
1718737783.774016,2.0,0.0,0.0442028,0.564215074
1718737783.775167,2.0,0.0,0.044773885,0.571678449
1718737783.775788,2.0,0.0,0.045352386,0.579267144
1718737783.777026,2.0,0.0,0.045938242,0.586793266
1718737783.77818,2.0,0.0,0.046531247,0.594098344
1718737783.77887,2.0,0.0,0.047131073,0.601053305
1718737783.780105,2.0,0.0,0.047737301,0.607558479
1718737783.781222,2.0,0.0,0.048349436,0.613543264
1718737783.781899,2.0,0.0,0.048971953,0.623504445
1718737783.783092,2.0,0.0,0.049591661,0.62152761
1718737783.783739,2.0,0.0,0.050214268,0.625384692
1718737783.784893,2.0,0.0,0.050840666,0.629671081
1718737783.786159,2.0,0.0,0.051470019,0.632751617
1718737783.786745,2.0,0.0,0.052101435,0.634699797
1718737783.787876,2.0,0.0,0.052734152,0.635754848
1718737783.789,2.0,0.0,0.053367558,0.636148702
1718737783.79016,2.0,0.0,0.0540012,0.636092265
1718737783.790727,2.0,0.0,0.054634786,0.635777857
1718737783.791847,2.0,0.0,0.055268186,0.635380513
1718737783.792996,2.0,0.0,0.055901419,0.635057147
1718737783.793573,2.0,0.0,0.056534648,0.634944617
1718737783.79471,2.0,0.0,0.057168157,0.635157675
1718737783.795834,2.0,0.0,0.057802329,0.635787381
1718737783.796955,2.0,0.0,0.058437625,0.636900339
1718737783.798053,2.0,0.0,0.059074558,0.63853884
1718737783.798612,2.0,0.0,0.059713665,0.640721917
1718737783.799725,2.0,0.0,0.060355489,0.643447204
1718737783.800895,2.0,0.0,0.061000554,0.646693459
1718737783.801991,2.0,0.0,0.06164935,0.650423566
1718737783.802553,2.0,0.0,0.062299752,0.652390446
1718737783.803668,2.0,0.0,0.062975119,0.676726689
1718737783.804796,2.0,0.0,0.063664989,0.690490561
1718737783.805924,2.0,0.0,0.064363945,0.69914702
1718737783.807022,2.0,0.0,0.065069879,0.705957278
1718737783.807593,2.0,0.0,0.06578153,0.711686132
1718737783.808741,2.0,0.0,0.066498033,0.7166557
1718737783.809858,2.0,0.0,0.06721877,0.721057735
1718737783.810966,2.0,0.0,0.067943304,0.725029576
1718737783.811544,2.0,0.0,0.068671334,0.728681615
1718737783.812642,2.0,0.0,0.069402672,0.732108694
1718737783.813766,2.0,0.0,0.070137217,0.735394655
1718737783.814897,2.0,0.0,0.070874941,0.738613843
1718737783.816017,2.0,0.0,0.071615879,0.74183128
1718737783.816574,2.0,0.0,0.072360112,0.745102392
1718737783.817721,2.0,0.0,0.073107757,0.748472661
1718737783.818841,2.0,0.0,0.073858963,0.751977428
1718737783.819971,2.0,0.0,0.074613894,0.755641897
1718737783.821186,2.0,0.0,0.075372726,0.759481405
1718737783.821735,2.0,0.0,0.076135639,0.763501928
1718737783.822867,2.0,0.0,0.076902804,0.767700827
1718737783.824038,2.0,0.0,0.077674383,0.772067789
1718737783.824643,2.0,0.0,0.078450522,0.776585935
1718737783.82584,2.0,0.0,0.079231343,0.781233049
1718737783.826252,-2.0,0.0,0.079231343,0.781233049
1718737783.826965,-2.0,0.0,0.080016942,0.785982875
1718737783.828111,-2.0,0.0,0.080799279,0.782694577
1718737783.828694,-2.0,0.0,0.081578362,0.779424429
1718737783.82986,-2.0,0.0,0.082349096,0.767808962
1718737783.831028,-2.0,0.0,0.083045933,0.703903874
1718737783.832147,-2.0,0.0,0.083787236,0.742233151
1718737783.832717,-2.0,0.0,0.084530169,0.742864137
1718737783.833937,-2.0,0.0,0.085269766,0.739341881
1718737783.834992,-2.0,0.0,0.08600566,0.735686741
1718737783.836131,-2.0,0.0,0.086738125,0.732400866
1718737783.836706,-2.0,0.0,0.087467488,0.729476148
1718737783.837951,-2.0,0.0,0.088194013,0.726815663
1718737783.839016,-2.0,0.0,0.088917876,0.724311517
1718737783.840161,-2.0,0.0,0.089639164,0.721863115
1718737783.840744,-2.0,0.0,0.090357878,0.719382141
1718737783.841899,-2.0,0.0,0.091073943,0.716794243
1718737783.842988,-2.0,0.0,0.091787222,0.714039838
1718737783.844135,-2.0,0.0,0.09249954,0.712937069
1718737783.844723,-2.0,0.0,0.093206595,0.707608909
1718737783.845855,-2.0,0.0,0.093912866,0.707070514
1718737783.846998,-2.0,0.0,0.094614824,0.702941356
1718737783.848147,-2.0,0.0,0.095312931,0.699120293
1718737783.848735,-2.0,0.0,0.096007881,0.695880938
1718737783.849849,-2.0,0.0,0.096700157,0.693062113
1718737783.851005,-2.0,0.0,0.09739003,0.690488452
1718737783.852149,-2.0,0.0,0.098077602,0.68802058
1718737783.852735,-2.0,0.0,0.098769636,0.69209622
1718737783.853841,-2.0,0.0,0.099451827,0.682512061
1718737783.85499,-2.0,0.0,0.100128552,0.677414652
1718737783.856148,-2.0,0.0,0.100802228,0.674556092
1718737783.856769,-2.0,0.0,0.101472486,0.671184628
1718737783.857979,-2.0,0.0,0.102138704,0.667097679
1718737783.859104,-2.0,0.0,0.1028003,0.66237762
1718737783.859739,-2.0,0.0,0.103456765,0.657132359
1718737783.860844,-2.0,0.0,0.104107681,0.651468721
1718737783.862021,-2.0,0.0,0.104752718,0.645491608
1718737783.863157,-2.0,0.0,0.105391647,0.639303934
1718737783.86374,-2.0,0.0,0.106024335,0.633005052
1718737783.864889,-2.0,0.0,0.106650744,0.626688241
1718737783.866057,-2.0,0.0,0.107270924,0.620438004
1718737783.867189,-2.0,0.0,0.107885002,0.614327672
1718737783.867829,-2.0,0.0,0.10849317,0.608417612
1718737783.868989,-2.0,0.0,0.109095669,0.602754142
1718737783.870114,-2.0,0.0,0.109688511,0.593332535
1718737783.871298,-2.0,0.0,0.11029564,0.607261945
1718737783.87192,-2.0,0.0,0.110895491,0.595428412
1718737783.873111,-2.0,0.0,0.111409233,0.518409015
1718737783.873706,-2.0,0.0,0.111989027,0.579729758
1718737783.874879,-2.0,0.0,0.112573061,0.583192354
1718737783.876066,-2.0,0.0,0.113153236,0.579236427
1718737783.877171,-2.0,0.0,0.113728393,0.574338429
1718737783.877756,-2.0,0.0,0.114298575,0.56957491
1718737783.878945,-2.0,0.0,0.114864109,0.565162653
1718737783.880113,-2.0,0.0,0.11542538,0.561123844
1718737783.881284,-2.0,0.0,0.115982761,0.557423236
1718737783.88185,-2.0,0.0,0.11653658,0.554005892
1718737783.882996,-2.0,0.0,0.117087106,0.550810018
1718737783.884144,-2.0,0.0,0.117634538,0.547772731
1718737783.884777,-2.0,0.0,0.118179011,0.544833653
1718737783.885928,-2.0,0.0,0.118720595,0.541937621
1718737783.887147,-2.0,0.0,0.119259303,0.539036719
1718737783.888436,-2.0,0.0,0.119795102,0.536091645
1718737783.889134,-2.0,0.0,0.120327922,0.533072402
1718737783.890339,-2.0,0.0,0.120857668,0.529958373
1718737783.890966,-2.0,0.0,0.121384231,0.526737865
1718737783.892191,-2.0,0.0,0.121907496,0.523407241
1718737783.892873,-2.0,0.0,0.122427349,0.519969773
1718737783.894094,-2.0,0.0,0.122943689,0.516434325
1718737783.895256,-2.0,0.0,0.123456423,0.512813976
1718737783.895867,-2.0,0.0,0.12396548,0.509124658
1718737783.897035,-2.0,0.0,0.124470805,0.505383895
1718737783.898206,-2.0,0.0,0.124972361,0.501609665
1718737783.898818,-2.0,0.0,0.125470133,0.497819432
1718737783.899985,-2.0,0.0,0.125964119,0.494029356
1718737783.901183,-2.0,0.0,0.126454335,0.490253684
1718737783.901802,-2.0,0.0,0.126940806,0.486504312
1718737783.903054,-2.0,0.0,0.127423568,0.48279052
1718737783.904166,-2.0,0.0,0.127909666,0.485907087
1718737783.904816,-2.0,0.0,0.128385375,0.475800044
1718737783.906052,-2.0,0.0,0.128853392,0.468472431
1718737783.907214,-2.0,0.0,0.129317236,0.464504029
1718737783.907931,-2.0,0.0,0.129777065,0.460557722
1718737783.90908,-2.0,0.0,0.130232658,0.456300962
1718737783.91041,-2.0,0.0,0.13068378,0.451754426
1718737783.910861,-2.0,0.0,0.131130225,0.446977763
1718737783.912029,-2.0,0.0,0.131571829,0.442033745
1718737783.9132,-2.0,0.0,0.13200848,0.436985115
1718737783.913874,-2.0,0.0,0.132440119,0.431893918
1718737783.914976,-2.0,0.0,0.132866746,0.42681998
1718737783.916128,-2.0,0.0,0.133288415,0.421818774
1718737783.916757,-2.0,0.0,0.133705231,0.416939176
1718737783.917922,-2.0,0.0,0.134117344,0.412221551
1718737783.919151,-2.0,0.0,0.134524937,0.407696388
1718737783.919885,-2.0,0.0,0.134928216,0.403383588
1718737783.921082,-2.0,0.0,0.135327399,0.399292399
1718737783.922282,-2.0,0.0,0.135722707,0.395421949
1718737783.922904,-2.0,0.0,0.136114352,0.391762247
1718737783.924099,-2.0,0.0,0.136502528,0.38829556
1718737783.925313,-2.0,0.0,0.136887408,0.384998007
1718737783.925911,-2.0,0.0,0.137269135,0.381841271
1718737783.9263,-2.0,0.0,0.137269135,0.381841271
1718737783.927079,-2.0,0.0,0.137647821,0.378794322
1718737783.928251,-2.0,0.0,0.138023609,0.37588342
1718737783.928868,-2.0,0.0,0.138396557,0.373028826
1718737783.930044,-2.0,0.0,0.138766684,0.370192091
1718737783.931241,-2.0,0.0,0.13913398,0.367345542
1718737783.931863,-2.0,0.0,0.139498411,0.364464103
1718737783.933058,-2.0,0.0,0.139859921,0.361526565
1718737783.934217,-2.0,0.0,0.140218435,0.358515746
1718737783.934915,-2.0,0.0,0.140573867,0.355418675
1718737783.936059,-2.0,0.0,0.140926121,0.352226587
1718737783.937218,-2.0,0.0,0.14127942,0.353164764
1718737783.937968,-2.0,0.0,0.141621382,0.341787581
